Thinkminator/franka_tray_rl/jointpos/tray_feasible_configs.csv
tray_x,tray_y,tray_z,tray_yaw,joint1,joint2,joint3,joint4,joint5,joint6,joint7
0.3,-0.3,0.1,-3.141592653589793,-0.5869769251004667,1.2476822762713684,-0.48068958567836045,4.042845821753514,-0.7917131865447031,-1.039099849032599,-0.6858284606135943
0.3,-0.3,0.1,-2.5703939893007397,-0.3856931568141957,1.2733895940006086,-0.5030617108957732,4.14901323661716,-1.0095682204394534,-1.034796954192174,-0.7137666374387717
0.3,-0.3,0.1,-1.9991953250116865,-0.47451758124091814,1.5445266265829036,-0.7776072029604193,4.727081350240468,-1.621072150063581,-0.7921996313204172,-0.7985908190681229
0.3,-0.3,0.1,-1.4279966607226333,-0.4493522013637202,1.6561308934246344,-0.8551043950871544,5.03962300191504,-2.094778934809922,-0.7345494902894363,-1.0672703822175111
0.3,-0.3,0.1,-0.8567979964335799,-0.42092404706074954,1.706976522667711,-0.8821072578280755,5.283688147955561,-2.61255749439687,-0.803659388745556,-1.3777466600008772
0.3,-0.3,0.1,-0.2855993321445265,-0.2676957820294753,1.7085107968380093,-0.9246924850211694,5.315787306462034,-3.0016264642445716,-1.0403792385772765,-1.6506195140999458
0.3,-0.3,0.1,0.2855993321445265,0.0625742800840935,1.6482670458381645,-0.9530134611723685,5.017988824805283,-3.208430696005532,-1.491615066503746,-1.7571979701236056
0.3,-0.3,0.1,0.8567979964335799,0.4570258656557023,1.6223544931671297,-0.9634125144905943,4.611670944932372,-3.346690659460449,-2.0235128033334964,-1.6958677391901187
0.3,-0.3,0.1,1.4279966607226333,0.6283605718853094,1.676823891213471,-0.9886736585521211,4.714606332693556,-3.4690650519163664,-2.1847829321218883,-1.6741090952632403
0.3,-0.3,0.1,1.9991953250116863,1.574108853912969,2.1796544709370673,-0.6650771235772838,3.892597327421246,-3.262197701587947,-3.1172018047333476,-1.2102349399266732
0.3,-0.3,0.1,2.57039398930074,1.831295075518948,2.266742367876022,-0.7590850970479149,3.9559257258404985,-3.26530999456785,-3.205164946004403,-1.2311778507410742
0.3,-0.3,0.1,3.141592653589793,2.253623035698481,2.389680749592554,0.16138274791963358,3.6909548853155547,-1.6381110548807065,-4.141958317790966,-2.0430721365823574
0.3,-0.3,0.30000000000000004,-3.141592653589793,2.2866475700053104,2.678972491930626,0.2961468280938041,3.4648544894463513,-1.8236737714890003,-4.31586307315406,-1.487403143746264
0.3,-0.3,0.30000000000000004,-2.5703939893007397,2.43623804241549,2.694491273422877,0.18807236560732055,3.4571615890259695,-1.6899770399069793,-4.464351975357615,-1.5305385687859052
0.3,-0.3,0.30000000000000004,-1.9991953250116865,2.3416070976716123,3.362915670820733,0.4432856154972893,4.199584965804939,-1.02119618214807,-5.340911983428299,-1.434504003608949
0.3,-0.3,0.30000000000000004,-1.4279966607226333,2.4844743918988477,3.3579946088138284,0.3016013181303666,4.261611986714974,-0.86943033497827,-5.4553806975169685,-1.4141251897238076
0.3,-0.3,0.30000000000000004,-0.8567979964335799,2.412593924653653,3.7179581775406563,0.10985910651160882,4.818356736281155,-0.07898738188773653,-5.816410234957962,-0.8107435521522989
0.3,-0.3,0.30000000000000004,-0.2855993321445265,2.610247122958525,3.716985739230743,-0.0736111419871188,4.833740887147402,0.07410312696443815,-5.819913021747997,-0.7861632984473212
0.3,-0.3,0.30000000000000004,0.2855993321445265,2.4590674652818194,3.4236243757587266,-0.32022037811535115,4.3014928316692504,0.9307572916550751,-5.417993177304511,-0.194331202240643
0.3,-0.3,0.30000000000000004,0.8567979964335799,2.6075139745272624,3.430102042483013,-0.4655055167744319,4.239890332281976,1.0840812968912183,-5.308168533708319,-0.17195823414375194
0.3,-0.3,0.30000000000000004,1.4279966607226333,2.4540274063371554,2.7612466292336784,-0.32476504465798567,3.5284313692491214,1.6710947653457047,-4.4625611932799565,-0.07801542812667633
0.3,-0.3,0.30000000000000004,1.9991953250116863,2.5951203019754825,2.7477641121748975,-0.43672086221629475,3.5253590942610384,1.8062479845465884,-4.312173360532672,-0.10893472328779237
0.3,-0.3,0.30000000000000004,2.57039398930074,2.5181957117302107,2.502754870803114,0.25394418904074706,3.391385328034707,3.5438419275533133,-3.840477978946992,-0.9594528566233139
0.3,-0.3,0.30000000000000004,3.141592653589793,2.7376854445876604,2.4993203997842075,0.14320118986440106,3.354971066255121,3.6672499568778756,-3.8870246998947113,-1.060407494262307
0.3,-0.3,0.5,-3.141592653589793,2.4740840815719647,3.434979878614633,0.5326786318197338,3.5517202454939287,4.3037855422605675,-4.787839825246965,-1.0003008371424238
0.3,-0.3,0.5,-2.5703939893007397,2.6066542718231913,3.451173723348714,0.41893956482196826,3.616073317462107,4.505042098856462,-4.801835310076598,-1.0055375895691578
0.3,-0.3,0.5,-1.9991953250116865,2.3985291925682746,3.815463836524993,0.4737335373870337,4.268673524146857,5.264256989414782,-5.239740564472573,-1.051358248667597
0.3,-0.3,0.5,-1.4279966607226333,2.557630387408137,3.8130364148750475,0.36769717354597015,4.361983850170857,5.470547549370254,-5.280726393883216,-1.0431155088997113
0.3,-0.3,0.5,-0.8567979964335799,2.54369983280653,4.035957046673771,0.26334605243156,4.783828471601037,6.156752488907002,-5.492092212143451,-0.6838780348778061
0.3,-0.3,0.5,-0.2855993321445265,2.7404164811435106,4.043690248628864,0.13634991105593894,4.8212636678331595,6.365779395726803,-5.471593208831975,-0.6506441355277838
0.3,-0.3,0.5,0.2855993321445265,2.784436524635108,3.792410596254446,0.06646006954235839,4.329348015224783,7.044180146244297,-5.092716874458168,-0.4077804003502467
0.3,-0.3,0.5,0.8567979964335799,2.942760629836593,3.80140650379408,-0.042327284526136405,4.297947988922644,7.256342755165882,-5.02066221518734,-0.4074466877273814
0.3,-0.3,0.5,1.4279966607226333,2.905874094824184,3.4342344834577903,0.08040174223542117,3.635023770888735,8.016037219897727,-4.656130460125537,-0.6048681603654801
0.3,-0.3,0.5,1.9991953250116863,2.857662406609853,3.3188274227197616,0.21777959474818864,3.3942883426450736,8.77850283861688,-4.625945905358674,-0.7825867266928349
0.3,-0.3,0.5,2.57039398930074,2.9884831671990324,3.322365972081536,0.09720437143917929,3.378786519282837,8.976749111396634,-4.646294510538039,-0.792717289754776
0.3,-0.3,0.5,3.141592653589793,2.612023032518283,3.462075108776593,0.6617747878902103,3.5480439918170936,10.563502134426653,-4.8296188180413875,-1.0161894563863507
0.3,-0.15,0.1,-3.141592653589793,2.7818204871467036,1.927998097853895,0.08100772224887241,3.4386688906561864,10.919561539192907,-3.529533556550613,-2.206904878926212
0.3,-0.15,0.1,-2.5703939893007397,2.9151830940127716,2.0509886401694666,0.5247282790876665,3.5692887301890317,11.394337813105976,-4.152897230471429,-2.2501805497103167
0.3,-0.15,0.1,-1.9991953250116865,3.2806061208662767,2.2653823748348154,0.8877519622234247,3.8669049480006157,11.640359634055391,-4.693251911699889,-2.2128442264321686
0.3,-0.15,0.1,-1.4279966607226333,3.4508715545510023,2.24319591916885,0.8287344336405668,3.8032848885138786,11.658628972987103,-4.896174824746521,-2.2079042230291748
0.3,-0.15,0.1,-0.8567979964335799,4.315512288155067,2.3219122322232493,1.4640588127018073,4.471226932394293,11.914842684469281,-5.570133910459915,-2.236820293600245
0.3,-0.15,0.1,-0.2855993321445265,4.470396075215849,2.297740996952782,1.368259681513491,4.377408874435001,11.942197020869324,-5.756070849191343,-2.23337999546103
0.3,-0.15,0.1,0.2855993321445265,4.898818151087991,2.1980819410265995,1.4988635254698754,4.610973848933012,11.996878288372555,-6.258052924521426,-2.3094261945273544
0.3,-0.15,0.1,0.8567979964335799,5.047285205757354,2.181848787514502,1.4029231640951831,4.488024285908281,12.00072248233828,-6.440832852091621,-2.3113957253724395
0.3,-0.15,0.1,1.4279966607226333,4.955238821958009,2.059382884839332,1.1581020357185565,4.127614994330487,12.007390228323894,-6.768776143657513,-2.2931539429369807
0.3,-0.15,0.1,1.9991953250116863,5.103394047416577,2.022041026012491,1.0677699275602015,3.9957071878351393,11.986329779157678,-6.949285438181547,-2.287432743812161
0.3,-0.15,0.1,2.57039398930074,4.863491048341381,1.5796406222786918,0.5937438642295699,3.5848243219845934,11.806829478298475,-7.421324267373932,-1.9780635192247888
0.3,-0.15,0.1,3.141592653589793,5.052355213660196,1.515281266889895,0.56797366237253,3.503065569211405,11.713003418531573,-7.611700906223332,-1.9948083009188566
0.3,-0.15,0.30000000000000004,-3.141592653589793,4.460689005875725,0.4785617103643978,0.7908782273519813,3.1815143036060056,11.557804113632852,-7.9897026904544965,-1.2317791895283492
0.3,-0.15,0.30000000000000004,-2.5703939893007397,4.522558121373861,0.4935374082996036,0.61675134496245,3.580481842692134,10.778061415166077,-8.120302723735577,-0.7169726077275731
0.3,-0.15,0.30000000000000004,-1.9991953250116865,4.686837842108696,0.4927465509163692,0.731466506301001,3.556022376592184,10.592001375349355,-8.130430792835254,-0.674310971748643
0.3,-0.15,0.30000000000000004,-1.4279966607226333,4.997517839160084,0.7769542493377976,0.608265032776934,4.268585420920754,9.978511363381841,-7.701474535877087,-0.21822963965273154
0.3,-0.15,0.30000000000000004,-0.8567979964335799,5.165059923510461,0.7611032921027991,0.7094321583363569,4.224507451174357,9.790719398342791,-7.599614252792727,-0.20421223071448866
0.3,-0.15,0.30000000000000004,-0.2855993321445265,5.290078355183309,0.9198523641296357,0.7754689196600899,4.359319169674216,9.257279680483679,-7.299583888145436,-0.2912760226275516
0.3,-0.15,0.30000000000000004,0.2855993321445265,5.460517330224435,0.913771608356903,0.8908171200170067,4.2657988296848846,9.079827959257214,-7.21460011494013,-0.3008587451935041
0.3,-0.15,0.30000000000000004,0.8567979964335799,5.28063177665148,0.9739953710155091,1.0227554467151647,3.943260241723651,8.34742458210325,-7.090045810852308,-0.5547975375289196
0.3,-0.15,0.30000000000000004,1.4279966607226333,5.454492389381627,0.9836398610101532,1.1088993780153251,3.781040190245105,8.191123110055099,-7.043040887707067,-0.5654598189233558
0.3,-0.15,0.30000000000000004,1.9991953250116863,5.363357701321126,0.6047048094179968,0.8965517050119729,3.388016421875449,7.318311877009187,-7.3786191805523496,-0.9034378359359658
0.3,-0.15,0.30000000000000004,2.57039398930074,5.270768728018762,0.43434919345426354,0.6483923878747303,3.1729684709814676,6.44960236620451,-7.494704390044598,-1.0011391987773155
0.3,-0.15,0.30000000000000004,3.141592653589793,5.063040654897005,0.3336365307307495,0.2778574397671893,3.2150058196259783,5.328538042939569,-7.783475361144702,-1.054417727470995
0.3,-0.15,0.5,-3.141592653589793,4.994133737834143,-0.567496833697583,0.15772303150178543,3.3849069077801244,5.064636430011782,-8.09342360073377,-0.01985246079022201
0.3,-0.15,0.5,-2.5703939893007397,5.158310953907248,-0.5255871517923993,0.2666685765220832,3.417064676518269,4.954917239093433,-7.928168973582595,0.00106600588134605
0.3,-0.15,0.5,-1.9991953250116865,5.153196758627228,0.09578642497291183,0.22185432961855944,4.04865334170133,4.35485223342831,-7.524818288829038,-0.041245293477907646
0.3,-0.15,0.5,-1.4279966607226333,5.297941475938392,0.10552427793955177,0.3666000750670745,4.076852459698573,4.21670579982798,-7.395432861590073,-0.0533472044825798
0.3,-0.15,0.5,-0.8567979964335799,5.346924283240595,0.3839675178539688,0.46978948735466897,4.381331524314534,3.6440194998937474,-7.08974906664773,-0.2547949088772627
0.3,-0.15,0.5,-0.2855993321445265,5.513148064822994,0.37827696179296855,0.6396018198898847,4.383094311408601,3.501049772689424,-6.992703200882384,-0.2783734913622872
0.3,-0.15,0.5,0.2855993321445265,5.045133111974948,0.5985614284602339,1.2346312556802377,4.199656831740839,2.6048915839583526,-6.89277511461462,-0.6639202325812509
0.3,-0.15,0.5,0.8567979964335799,5.224005505696103,0.6400923431282506,1.399886052217936,4.086754110284081,2.4760015167168556,-6.875844788146047,-0.6817563968190886
0.3,-0.15,0.5,1.4279966607226333,4.961390358084544,1.0791390616518288,1.7232028558067423,3.709830648554572,1.4246956315690682,-6.671922548609519,-1.3098401411737324
0.3,-0.15,0.5,1.9991953250116863,4.6299359641695395,0.9440739422472232,2.0692680373127907,3.5909980382673456,0.9647551701075555,-7.264286790058859,-1.9227542546416534
0.3,-0.15,0.5,2.57039398930074,4.7765699681274185,0.9693511414821685,2.1595748077214725,3.45865529787316,0.9078202107670639,-7.435369881586446,-1.9343747592887641
0.3,-0.15,0.5,3.141592653589793,4.18685354449632,1.8266077716128823,2.592096327277072,3.3482590477608296,1.2841715371125548,-8.430744410568053,-2.8911800018717813
0.3,0.0,0.1,-3.141592653589793,3.809420799446906,2.4957165105794514,3.160332244778453,1.8016449878677623,1.0964912422599418,-8.671463053578961,-1.7426674873527506
0.3,0.0,0.1,-2.5703939893007397,4.686340863638929,1.9444821418131941,3.6083339999713138,1.6404794740201665,0.928258104077963,-8.485686945229247,-0.8869740083292622
0.3,0.0,0.1,-1.9991953250116865,4.914102328690864,1.9219949412398991,3.540468643921316,1.7077822647073342,0.7543206385724822,-8.485639922755567,-0.8587696791252226
0.3,0.0,0.1,-1.4279966607226333,5.53837165199358,1.6607159886478418,3.542982177129213,1.0687563600803343,0.5903310391314556,-7.754525752311729,-0.24726349699539193
0.3,0.0,0.1,-0.8567979964335799,5.749218210741437,1.6254995377877108,3.5320605311817173,1.1051055700050403,0.40078141879947965,-7.630367355110963,-0.26403401740069476
0.3,0.0,0.1,-0.2855993321445265,6.053906505997127,1.746158999810507,3.5141920963186246,0.7584736091004349,-0.013577872537262066,-7.225484693535262,-0.4413479142992649
0.3,0.0,0.1,0.2855993321445265,6.300637876366761,1.7070493909775053,3.5150120376690253,0.8121914233074449,-0.2031182227436477,-7.1598503792243475,-0.5132407351747845
0.3,0.0,0.1,0.8567979964335799,6.42732217409365,1.6994697604126179,3.408605202212111,0.8823124707804108,-0.8920759602176269,-7.286325727446451,-1.0337990169492777
0.3,0.0,0.1,1.4279966607226333,6.663635459303257,1.701170117835883,3.402467041648653,0.9602010445928117,-1.0894626026890772,-7.375389717657985,-1.0728054883088405
0.3,0.0,0.1,1.9991953250116863,6.831415795980744,1.6132810675796805,3.264225770183042,1.390173007983067,-1.4731432415535235,-7.717576643293114,-0.9241151216579101
0.3,0.0,0.1,2.57039398930074,7.042165207870146,1.6232886521580818,3.245622490079604,1.4376724440052258,-1.7000212136397679,-7.76512185796927,-0.908310385708981
0.3,0.0,0.1,3.141592653589793,6.95367744300859,1.982936297259602,2.7429860872964555,1.7617245723025134,-2.357087726216722,-7.669511546990383,-0.10191497632021948
0.3,0.0,0.30000000000000004,-3.141592653589793,7.065859576341542,1.3018623593935061,2.253199161221263,2.28985654551465,-2.836900398061033,-7.905030472344849,0.08486658638616078
0.3,0.0,0.30000000000000004,-2.5703939893007397,6.643746577932673,1.4197502582742578,1.944572303944704,1.9650528962428275,-3.390714296893387,-7.328690703332004,0.3017667305936231
0.3,0.0,0.30000000000000004,-1.9991953250116865,6.797895081008129,1.4523635258083463,1.944187104333283,1.800633004899896,-3.482281194644984,-7.181125261393236,0.29024482518406564
0.3,0.0,0.30000000000000004,-1.4279966607226333,6.603238800772983,1.5868738922923353,1.8052740682393766,1.3336552722765131,-3.6596039982513084,-6.7570251609592535,0.24356822799702255
0.3,0.0,0.30000000000000004,-0.8567979964335799,6.768038275574097,1.5966445384336772,1.7624421525683487,1.157657124641354,-3.712945259040493,-6.607827271791123,0.23706048765039403
0.3,0.0,0.30000000000000004,-0.2855993321445265,6.905374561780591,1.9436019824782658,1.2850863415824856,1.080749260411512,-3.200349610418278,-6.162589362407262,0.2469192734383401
0.3,0.0,0.30000000000000004,0.2855993321445265,7.085041665590487,1.9147373699428232,1.178475663308368,0.9516337110899722,-3.1661360359247577,-6.010011677466741,0.24338385915514357
0.3,0.0,0.30000000000000004,0.8567979964335799,7.547441499020527,2.1434827665613314,1.1910784788867665,1.4291354085570083,-2.710833149946551,-5.427747122354376,0.4585548466985271
0.3,0.0,0.30000000000000004,1.4279966607226333,7.716144531868548,2.1336724296954688,1.0993926719792788,1.3496086562065301,-2.64404651023315,-5.250298123917296,0.459894810127167
0.3,0.0,0.30000000000000004,1.9991953250116863,8.604965276617682,2.5523279653470827,1.7039881745097454,2.08973952510114,-2.1689500120638194,-4.633873060448014,0.4138006119737395
0.3,0.0,0.30000000000000004,2.57039398930074,8.971386191832666,2.273246466579454,2.407035385129651,2.417686376332849,-1.9447340824713695,-3.731944915580091,0.5715023074066924
0.3,0.0,0.30000000000000004,3.141592653589793,8.617499885471641,2.3053590576880905,2.975148013031885,2.4587854677377337,-1.753633073500568,-2.447255934901721,0.8531054868826008
0.3,0.0,0.5,-3.141592653589793,8.770072499666616,1.264857514859748,3.1066940576046833,3.1373448755068263,-1.2325020658097023,-2.4301393262949684,0.2908521126778871
0.3,0.0,0.5,-2.5703939893007397,8.998679346183236,0.6100530673182448,2.8372699789639015,3.3685744917861804,-1.4661484597521621,-1.9195496568734234,-0.03135334831499129
0.3,0.0,0.5,-1.9991953250116865,9.174697607409147,0.5851060865509121,2.942259066027874,3.3584545878284056,-1.5683170637403514,-1.7516881988654602,-0.006603244359827454
0.3,0.0,0.5,-1.4279966607226333,9.265602295837295,-0.04647856174932588,2.843079439172702,3.9714279178751433,-2.0136899146121063,-1.1512504350124293,-0.11461938041940178
0.3,0.0,0.5,-0.8567979964335799,9.416131259042444,-0.046532132511218315,2.9942708944615166,4.004306121189622,-2.1482990593642626,-1.0295266758045332,-0.13172443797193437
0.3,0.0,0.5,-0.2855993321445265,9.381361428602753,-0.2564410606467629,3.105102109737372,4.21123027190839,-2.8445262355228573,-0.7778701605984392,-0.5947222685278956
0.3,0.0,0.5,0.2855993321445265,9.555349262014785,-0.2465351888210272,3.288326108505278,4.22843524200371,-2.9884249611647764,-0.735959003787518,-0.6290536106781196
0.3,0.0,0.5,0.8567979964335799,9.372073627587747,-0.20165941887763877,3.472219493576722,4.141608167106426,-3.9285338287082765,-0.8917900082942011,-1.2841463336966676
0.3,0.0,0.5,1.4279966607226333,9.535422877148184,-0.21810275653334882,3.6369686681757587,4.100419610907536,-4.07194302880773,-0.9819013813057699,-1.306899881844356
0.3,0.0,0.5,1.9991953250116863,9.532683425199153,0.2305928924157006,3.6529470318970856,3.697839436979148,-4.505426988368481,-1.5279068565556335,-1.5638282128082994
0.3,0.0,0.5,2.57039398930074,9.68293756739586,0.24139890444827206,3.7887880346622023,3.6925229093679004,-4.622782166207922,-1.6750322412506944,-1.5640399883738842
0.3,0.0,0.5,3.141592653589793,9.921342587794397,1.193119584873386,3.1892395142736434,3.084099498240563,-5.32775561280178,-2.495942655117081,-1.5952671492816497
0.3,0.14999999999999997,0.1,-3.141592653589793,9.49850985146484,2.8189726310286196,2.2794631063213555,1.657837693051786,-5.04924403864541,-2.197127568659997,-2.216770863146583
0.3,0.14999999999999997,0.1,-2.5703939893007397,9.886108443216635,2.705270523357418,2.7900475742381157,1.960163031705063,-4.85063904507862,-2.9217892332069564,-2.373088819971169
0.3,0.14999999999999997,0.1,-1.9991953250116865,9.79864981673529,2.498495231114289,3.336317911508988,1.9802124369202592,-4.43678539184984,-4.110672703512072,-2.6423943547492517
0.3,0.14999999999999997,0.1,-1.4279966607226333,9.971041857483096,2.4881824267782178,3.24943314616017,1.9782756490445992,-4.514520706377827,-4.298936563159727,-2.6438371966255514
0.3,0.14999999999999997,0.1,-0.8567979964335799,9.92482415870119,3.420310816739267,3.9455318768830336,1.3854473780375773,-4.895529159814976,-5.712616652268447,-2.351425221236435
0.3,0.14999999999999997,0.1,-0.2855993321445265,10.065189822304818,3.4383472132682646,3.8007172225221413,1.3401824523021673,-4.885041087128576,-5.894342278397782,-2.355457382592185
0.3,0.14999999999999997,0.1,0.2855993321445265,9.822819836375013,3.8422363759001557,3.4627403757027153,0.8992223521543914,-4.972244476434786,-6.419838402037318,-2.4252031816744237
0.3,0.14999999999999997,0.1,0.8567979964335799,10.00007757665406,3.9033941576410696,3.428383715487154,0.7007502635038643,-4.66698171228374,-6.765256329579427,-2.0972909919359157
0.3,0.14999999999999997,0.1,1.4279966607226333,10.158171751313033,3.849164400202631,3.265140271708308,0.7832001644148385,-4.7090355568176765,-7.0686508859186885,-2.2525213857530813
0.3,0.14999999999999997,0.1,1.9991953250116863,10.33511914564692,3.843642345800756,3.1479171368776133,0.7786722306260729,-4.686690492893712,-7.276986815776501,-2.2765296225102127
0.3,0.14999999999999997,0.1,2.57039398930074,10.396770205851087,3.387962309874098,3.0249440246667514,1.3631446777790737,-4.687212024328372,-7.767423421329543,-2.4080221028399453
0.3,0.14999999999999997,0.1,3.141592653589793,10.542093451800579,3.3579133229776232,2.882559404231367,1.3890888694384012,-4.659442387726795,-7.951358867487165,-2.4029900775873703
0.3,0.14999999999999997,0.30000000000000004,-3.141592653589793,10.398276671360822,3.6025887475333027,3.018140676117269,2.0575413010884205,-4.280170103159872,-8.091115808828997,-3.3540868623698956
0.3,0.14999999999999997,0.30000000000000004,-2.5703939893007397,10.14050550555635,3.2812103084766893,3.134289141551192,2.3601254369572655,-3.3469949608116334,-8.491671423046245,-3.8173429281825197
0.3,0.14999999999999997,0.30000000000000004,-1.9991953250116865,9.501132900321329,3.70545420672604,3.4350548279948176,1.9032937213563061,-1.8647826882534737,-7.9000406874520674,-4.6485972891032015
0.3,0.14999999999999997,0.30000000000000004,-1.4279966607226333,9.521125998245253,3.9123146719795177,3.384340703876849,1.5241198760073655,-1.550422853495246,-7.576791968676651,-4.781535917578782
0.3,0.14999999999999997,0.30000000000000004,-0.8567979964335799,9.69520073445643,3.9245512026758975,3.2883794419421326,1.4592012234261675,-1.3831575106667118,-7.444878541364217,-4.7865661840257925
0.3,0.14999999999999997,0.30000000000000004,-0.2855993321445265,9.759986330704011,4.195553895489258,3.221829606920402,1.030198840414085,-0.9689073662016485,-7.009806872263392,-4.6857755674004595
0.3,0.14999999999999997,0.30000000000000004,0.2855993321445265,9.980113849756663,4.175333902190876,3.132719094071666,0.9739191126716368,-0.8185568978785827,-6.860985950892081,-4.681261544233358
0.3,0.14999999999999997,0.30000000000000004,0.8567979964335799,9.625352234517631,4.429081152873391,2.159750252158242,1.088724884567674,0.38504066271540066,-6.707779318184656,-4.528779598463408
0.3,0.14999999999999997,0.30000000000000004,1.4279966607226333,9.576971949335558,4.728402101016665,1.6494822084311012,1.3549898473026885,0.7856716127933833,-6.396302264379733,-4.72231141171271
0.3,0.14999999999999997,0.30000000000000004,1.9991953250116863,9.752205385555548,4.724232310157735,1.5976524379351367,1.5602888050574528,0.8058493735903478,-6.282763594065915,-4.7272629008032405
0.3,0.14999999999999997,0.30000000000000004,2.57039398930074,9.222598334222395,5.122162360259481,1.480308706493966,2.112522151472342,0.6191116534092916,-5.516415879884346,-5.1026033987364325
0.3,0.14999999999999997,0.30000000000000004,3.141592653589793,8.421150489624322,5.2520635724149365,1.5752333463594446,2.358065824133627,0.2943870246437706,-4.444228727272729,-5.127713561797057
0.3,0.14999999999999997,0.5,-3.141592653589793,8.3340462022683,4.996206864074511,2.3822836320354424,2.19993538156689,0.835357326255006,-4.5547688931881245,-5.9273878160040745
0.3,0.14999999999999997,0.5,-2.5703939893007397,8.510332561754888,4.954962071339795,2.4173039607561524,2.273436337851273,0.9330829831488553,-4.371565114444102,-5.9364710999730255
0.3,0.14999999999999997,0.5,-1.9991953250116865,8.369824976415611,4.154699164167284,2.2561653757788283,2.112604164827996,1.8354986603707553,-4.0365034833574684,-7.4324109345649685
0.3,0.14999999999999997,0.5,-1.4279966607226333,8.56453663616071,4.147767893427642,2.429371869505096,1.8477495640321444,2.342129922441054,-4.5066081590276115,-7.76285012807909
0.3,0.14999999999999997,0.5,-0.8567979964335799,8.746392259867239,4.123900908729118,2.3709473056967125,1.8910871771282192,2.5192149249200955,-4.620336315120016,-7.80299276921607
0.3,0.14999999999999997,0.5,-0.2855993321445265,9.070690853398796,4.392620378523732,2.4436588115545064,1.20717007218663,2.953664774366655,-5.359017087789248,-7.862137216352126
0.3,0.14999999999999997,0.5,0.2855993321445265,9.272185036376626,4.35044959050617,2.370876816428411,1.2666843484433083,3.1077210204460326,-5.499611395220192,-7.8383726608007835
0.3,0.14999999999999997,0.5,0.8567979964335799,9.562982921892756,4.500582309059708,2.2465118906764046,1.0112387274192811,3.9095798581328274,-5.855268950357303,-7.283996058220942
0.3,0.14999999999999997,0.5,1.4279966607226333,9.793796327942154,4.466369204879089,2.1728334421014184,1.1775098166788398,4.037523800041856,-5.867652538762133,-7.259472541656819
0.3,0.14999999999999997,0.5,1.9991953250116863,9.773091743195318,4.314662250272332,2.2546106508190236,1.5960465884672719,4.795879114788704,-5.567650112327265,-6.637822529946779
0.3,0.14999999999999997,0.5,2.57039398930074,9.964385288201889,4.306230450874347,2.2209765821047385,1.7711694175054578,4.947100618262339,-5.494510389805086,-6.630793312423954
0.3,0.14999999999999997,0.5,3.141592653589793,9.731252173311372,3.8498285153251017,2.6746266604449973,2.2106289573565774,5.644886493262859,-4.673138788663794,-6.680861039508464
0.3,0.3,0.1,-3.141592653589793,9.68812633852092,2.8284740630313165,2.4529680286573616,1.7482395475075458,4.466806192067314,-4.084150228101932,-5.43056656570242
0.3,0.3,0.1,-2.5703939893007397,9.691222705346826,2.8706768236509506,2.8554883597317984,1.8360023616160315,4.338534769857056,-3.1120997267716763,-5.214431911847322
0.3,0.3,0.1,-1.9991953250116865,9.584483530118852,3.1712815035171484,3.0232632577626655,1.5525298031351826,4.706210734734022,-2.277159157071689,-5.497552289814794
0.3,0.3,0.1,-1.4279966607226333,9.589817814535964,3.552659436133501,2.984252928429194,1.1879945358082618,4.771022436954976,-1.738911951128704,-5.488353941213412
0.3,0.3,0.1,-0.8567979964335799,9.730451323747122,3.5854936348573,2.857777099045744,1.176000429266802,4.810708681104391,-1.5387132250603488,-5.478022864851696
0.3,0.3,0.1,-0.2855993321445265,9.901254019641708,4.124958799404812,2.7168514776613026,0.3584329353841039,4.881472868073997,-0.9370804172583147,-5.831643339130056
0.3,0.3,0.1,0.2855993321445265,10.104919432110227,4.222375120652559,2.491709789080267,0.13422411183914992,4.707410243372627,-0.605458466248781,-6.225019261791685
0.3,0.3,0.1,0.8567979964335799,10.145253668531096,4.180770662373364,2.0257614885856317,0.22536340017307832,4.3677765046757004,-0.4299955948983951,-6.888561396698008
0.3,0.3,0.1,1.4279966607226333,10.225579403611075,4.281902034952416,1.324838904640366,0.17358356735033986,4.070059737619573,-0.6288330077740559,-7.7837145919097335
0.3,0.3,0.1,1.9991953250116863,10.247422547163739,4.339105122051626,1.1289497563160364,0.4398644665094453,3.9015334247010682,-0.8585857680536759,-7.933281295276158
0.3,0.3,0.1,2.57039398930074,10.395786708966678,4.34041096495561,1.0503154427326602,0.5936106522564909,3.803230278144506,-1.0145635774977662,-7.942214939334743
0.3,0.3,0.1,3.141592653589793,10.109771393596986,4.48241769031065,0.7535077400108838,1.2331320049029633,3.5043219595240678,-1.2868850733687656,-7.764735745885268
0.3,0.3,0.30000000000000004,-3.141592653589793,10.007629941919546,5.0269788386402725,0.9982901804883293,1.5181707345038673,3.7083110247781668,-1.2864835782430524,-8.108301533263155
0.3,0.3,0.30000000000000004,-2.5703939893007397,10.14696588089113,5.056111458367296,1.0229472279584353,1.6658721573277488,3.585059212636943,-1.444575705328468,-8.10435034125606
0.3,0.3,0.30000000000000004,-1.9991953250116865,9.112687873668042,5.011719845400136,0.910787978137501,1.9691258065081085,2.192687432858264,-2.3448605780238116,-7.4987947054830455
0.3,0.3,0.30000000000000004,-1.4279966607226333,9.2321127073642,5.1728846726396425,0.6465478039314213,1.4541820306512072,1.1813531856325405,-1.9984199103898843,-6.321445638123768
0.3,0.3,0.30000000000000004,-0.8567979964335799,9.4104155661633,5.1773273138484575,0.6803653186187525,1.5174294473020418,1.014815501113136,-1.861047104595263,-6.301443976385882
0.3,0.3,0.30000000000000004,-0.2855993321445265,9.774630286687712,4.9030703297459866,0.6192821605995402,0.6638572512955746,0.713647004612699,-1.062565394308509,-5.916336694686414
0.3,0.3,0.30000000000000004,0.2855993321445265,9.962819120592517,4.942555896091852,0.6455744473868303,0.7278598869175308,0.6114220818630428,-0.8568903729695638,-5.944422614818035
0.3,0.3,0.30000000000000004,0.8567979964335799,10.068000781258805,4.721787345821111,1.0012273014790127,0.557253476133124,-0.28611721953543684,-0.3860199200938814,-6.339069872047681
0.3,0.3,0.30000000000000004,1.4279966607226333,10.061039317091367,4.472786846458968,1.7493263753023285,0.8551925355365202,-0.8005691268993785,-0.052284071229118205,-6.016903542072962
0.3,0.3,0.30000000000000004,1.9991953250116863,9.98899569422488,4.336339973678729,1.807383700046892,1.2530597313093368,-0.7825749399423134,0.26382569592198646,-5.874387566868127
0.3,0.3,0.30000000000000004,2.57039398930074,10.122726905907475,4.32768918433469,1.7768599141208874,1.429645351732869,-0.7513449461502576,0.43625636703791315,-5.8727855497968235
0.3,0.3,0.30000000000000004,3.141592653589793,9.23432992607834,4.1689734695529825,1.5229083515023514,2.011755864394036,-0.5561583679446886,1.3594948246239444,-5.701320827990427
0.3,0.3,0.5,-3.141592653589793,9.601579556870362,4.476387470717234,2.1659449812958584,1.905125993815407,-0.31134284273374385,1.2347872758678908,-6.189679269576858
0.3,0.3,0.5,-2.5703939893007397,9.749419979554501,4.4334752147519465,2.173761363709216,2.0327740107124757,-0.17111959690342363,1.3799905164257085,-6.183423171341091
0.3,0.3,0.5,-1.9991953250116865,9.478095013758491,3.9027276099197077,2.65056264316341,1.9668990730129488,0.8298760919757607,2.1354565604440445,-7.183539535961216
0.3,0.3,0.5,-1.4279966607226333,9.650164876913468,3.905746812348721,2.551846450120521,2.0077394230928918,1.0289456595314568,2.138777508603722,-7.214778535116864
0.3,0.3,0.5,-0.8567979964335799,9.523574419411638,4.136749816327871,2.8961103085996753,1.4595110114881298,2.066206014006028,1.4107451471375485,-7.793899160434882
0.3,0.3,0.5,-0.2855993321445265,9.698796685751388,4.122520032820476,2.8353166222794037,1.4458787555671269,2.2611927610170737,1.2764925494119537,-7.808443492838703
0.3,0.3,0.5,0.2855993321445265,9.852717421957248,4.488878994633352,2.8371732424882574,0.7227021289661065,2.7682148452318875,0.5839631089444404,-7.702069802137331
0.3,0.3,0.5,0.8567979964335799,10.100171513303778,4.438835521379591,2.7811371848290856,0.7286052068605691,2.920515775246453,0.4464003348361367,-7.657364888395614
0.3,0.3,0.5,1.4279966607226333,10.258880803596792,4.479366090635904,2.6374837853150037,0.7764913597152574,4.146107886952935,0.4905166399462101,-6.67460923432244
0.3,0.3,0.5,1.9991953250116863,10.490817367489036,4.470487283562882,2.5950895254739894,0.9181571461677959,4.28679839853436,0.6082712570903609,-6.64889343112667
0.3,0.3,0.5,2.57039398930074,10.372097934030178,4.129305469060904,2.715070584396625,1.5418791459203092,4.771801505850703,1.1749976866862761,-6.4498469459736665
0.3,0.3,0.5,3.141592653589793,10.541208057680247,4.121208520549073,2.663634715004335,1.6453258038472343,4.965641969075543,1.2864457701474556,-6.456658700210853
0.39999999999999997,-0.3,0.1,-3.141592653589793,10.734303663409216,3.948460577833699,2.4254259687149835,3.8004686041453137,4.170702923176974,1.7297382640540135,-8.43606754163815
0.39999999999999997,-0.3,0.1,-2.5703939893007397,10.869820600259873,3.888885350606756,2.3611694473603486,3.8687263413811195,4.211777045953473,1.5136444313849717,-8.432538801065318
0.39999999999999997,-0.3,0.1,-1.9991953250116865,10.768612339488381,2.9914087704041004,2.353060720478118,4.505384329163124,5.010675027560385,1.0480618680452989,-8.292502051953912
0.39999999999999997,-0.3,0.1,-1.4279966607226333,10.89254548553056,2.9611287969412636,2.229659842651073,4.5253710699410234,5.102659109183325,0.8589675314697303,-8.280944993501166
0.39999999999999997,-0.3,0.1,-0.8567979964335799,11.356427706340162,2.1945239431584898,2.2165590080018003,5.447483430738688,5.316706464241287,0.28408512903452043,-8.7590120226714
0.39999999999999997,-0.3,0.1,-0.2855993321445265,11.536523399256444,2.1718076457432787,2.255265044358186,5.4056702184131575,5.031513156454028,-0.1112823024937508,-9.030121929719
0.39999999999999997,-0.3,0.1,0.2855993321445265,11.761805116567562,2.2777998655675034,2.4521929315363624,5.405930870033107,5.162640879304472,-0.5812946260416143,-8.719953986877172
0.39999999999999997,-0.3,0.1,0.8567979964335799,11.711233513329548,2.4128797809253926,2.2695323394730984,5.0817277219907355,5.151077493558985,-0.9139828485631509,-8.818946037944205
0.39999999999999997,-0.3,0.1,1.4279966607226333,11.332727416889131,2.7219338678153746,1.944877517190975,4.446588909032129,5.03991857641143,-1.3446579998942725,-9.058454865462043
0.39999999999999997,-0.3,0.1,1.9991953250116863,10.534623081182728,2.667729187709129,1.1545824932087803,4.001548078326428,5.285406667802823,-1.7502865242542065,-9.118605707678688
0.39999999999999997,-0.3,0.1,2.57039398930074,10.250452977945034,2.216081192210191,0.9034973126623491,3.7423885806583717,5.572505890011467,-2.199108358839822,-8.925057661633224
0.39999999999999997,-0.3,0.1,3.141592653589793,10.382413533232,2.1459767225905044,0.831769224822449,3.6607558071792576,5.614318798517045,-2.4068917244017354,-8.930742696355368
0.39999999999999997,-0.3,0.30000000000000004,-3.141592653589793,10.140542524632579,1.584438390478683,1.4248290954502583,3.5070388630079856,6.03609639085294,-2.785409626594106,-8.541168060042613
0.39999999999999997,-0.3,0.30000000000000004,-2.5703939893007397,10.265422556728879,1.5840034559631826,1.4296540205959754,3.4063187687251486,6.028898401844196,-2.993377685001576,-8.539771927474543
0.39999999999999997,-0.3,0.30000000000000004,-1.9991953250116865,10.335390569240559,1.6879054078540363,1.544796891249006,4.217884590092625,6.1589797939690785,-4.450154819791207,-8.62008889794659
0.39999999999999997,-0.3,0.30000000000000004,-1.4279966607226333,10.46843702866049,1.6825128876638984,1.5342320609668625,4.115526343311064,6.168279544928551,-4.659221859643711,-8.62116546438478
0.39999999999999997,-0.3,0.30000000000000004,-0.8567979964335799,11.13747691177044,1.6298096173338747,1.5805704744512628,5.191327115588898,6.193971771708022,-5.762667678837676,-8.691232288688258
0.39999999999999997,-0.3,0.30000000000000004,-0.2855993321445265,11.455670060336237,1.6450107360284367,1.6401283262566024,5.460961247626469,6.111661988260468,-6.288418184675249,-8.723972733582752
0.39999999999999997,-0.3,0.30000000000000004,0.2855993321445265,11.543055650754201,1.67011544761437,1.6585519599012963,5.308168051468106,6.104930757587146,-6.622943213725571,-8.703665053186008
0.39999999999999997,-0.3,0.30000000000000004,0.8567979964335799,11.422049324215525,1.6792267374318424,1.614518527748156,4.81313487094771,6.116357834796669,-6.819318930985666,-8.717346314329038
0.39999999999999997,-0.3,0.30000000000000004,1.4279966607226333,11.540280142496297,1.6821963538628966,1.602903315428891,4.6474492431674514,6.125428957302645,-7.012311428187348,-8.716506808158384
0.39999999999999997,-0.3,0.30000000000000004,1.9991953250116863,10.987605909606767,1.6849819938555217,1.5249249951507042,3.8680648475231276,6.149360583588595,-7.447063866306485,-8.713809765563145
0.39999999999999997,-0.3,0.30000000000000004,2.57039398930074,11.092240138331652,1.680145173289602,1.508067209494759,3.70514079403757,6.159975896292209,-7.638519918499081,-8.712835688279975
0.39999999999999997,-0.3,0.30000000000000004,3.141592653589793,10.135144674701948,1.6144319051684257,1.4574141250141004,3.5017194152467352,6.164456088266055,-9.072097028635,-8.656877372135536
0.39999999999999997,-0.3,0.5,-3.141592653589793,10.063716861143076,1.2690660631336768,2.0081206809539487,3.6017631286790337,6.4375927463816,-9.185505190835354,-8.279490355047079
0.39999999999999997,-0.3,0.5,-2.5703939893007397,10.214199290305974,1.3494923402356778,2.051776008228791,3.5206231335408114,6.419308677497498,-9.38587056573611,-8.275340691786857
0.39999999999999997,-0.3,0.5,-1.9991953250116865,10.413736895848816,1.5683847500429655,1.8776397695939484,4.302625093316628,6.333379085255846,-10.731764687661824,-8.363957398839782
0.39999999999999997,-0.3,0.5,-1.4279966607226333,10.5524673312434,1.603070664230027,1.8779363315313953,4.203261057924078,6.394280635549464,-10.934554647897171,-8.374023124853247
0.39999999999999997,-0.3,0.5,-0.8567979964335799,11.224989891680634,1.5529787698387658,1.883924356695468,5.280664045732532,6.584666884832961,-12.002782582211259,-8.12552685868909
0.39999999999999997,-0.3,0.5,-0.2855993321445265,11.446631949754922,1.5026245989446088,1.7176745405316052,5.345953227495707,7.2297543800211015,-12.375430005011927,-7.667332738990811
0.39999999999999997,-0.3,0.5,0.2855993321445265,11.37917311594191,1.4947859786268185,1.6693907423722183,4.824159239079853,7.973722770188996,-12.459618818160402,-7.029151035652342
0.39999999999999997,-0.3,0.5,0.8567979964335799,11.2797041923631,1.7946319037282847,1.8845949169470835,4.289396158090279,8.278277776127865,-12.143679014155273,-6.612307293012629
0.39999999999999997,-0.3,0.5,1.4279966607226333,11.121629154822879,2.097927699566514,1.9756966590523466,3.845626165183395,8.590286032077822,-11.729095890954754,-6.461439450029282
0.39999999999999997,-0.3,0.5,1.9991953250116863,11.265826223002975,2.1537352445007816,1.9542627482831476,3.678486372006319,8.734780985752716,-11.626447756425735,-6.43648795577637
0.39999999999999997,-0.3,0.5,2.57039398930074,10.983031724621705,2.762195744824819,2.346696884385726,3.570836577356423,9.67576921117822,-10.776938216330887,-6.862759962587613
0.39999999999999997,-0.3,0.5,3.141592653589793,11.106146080816924,2.7790229194724465,2.2429442973430382,3.543659482762757,9.879691472335901,-10.719619507036795,-6.883792704418456
0.39999999999999997,-0.15,0.1,-3.141592653589793,11.476587016787533,4.137814178914185,2.6651864941288848,3.606143582182399,10.470868183048223,-10.314691591577503,-8.457489349256955
0.39999999999999997,-0.15,0.1,-2.5703939893007397,11.64567363604403,4.091833958210004,2.625550794497035,3.645632902936446,10.498001324217892,-10.537414998482571,-8.469673753313606
0.39999999999999997,-0.15,0.1,-1.9991953250116865,11.581978732156799,3.4128450297955633,3.0505018390699803,4.079886029869825,11.150810605785397,-11.439724058984586,-8.250727077065072
0.39999999999999997,-0.15,0.1,-1.4279966607226333,11.71851609654487,3.3842393967343227,2.9351690335387977,4.117161646165314,11.213847606715373,-11.633415076575107,-8.22776940062678
0.39999999999999997,-0.15,0.1,-0.8567979964335799,11.767962608674177,2.7538387659906443,2.9228600884249047,4.924016174759222,11.61141635964255,-12.24541952969056,-8.098219124330939
0.39999999999999997,-0.15,0.1,-0.2855993321445265,11.823225386203529,2.4774689328396566,2.592568758505542,5.30903791783536,11.942286281679728,-12.579920528017366,-8.03478525527731
0.39999999999999997,-0.15,0.1,0.2855993321445265,11.830636669690687,2.270528235429936,2.099913496498232,5.377822088796957,12.04891775240129,-12.852179616840603,-8.313063793564355
0.39999999999999997,-0.15,0.1,0.8567979964335799,11.64512270869314,2.1942263560208275,1.6626346703381178,4.913260248926866,12.034847395854328,-12.99187846819869,-8.548147668047386
0.39999999999999997,-0.15,0.1,1.4279966607226333,11.49639911133095,2.1291302430197536,1.3894606408981802,4.48938793541989,12.0258313581455,-13.209493537001507,-8.600585743374776
0.39999999999999997,-0.15,0.1,1.9991953250116863,11.623225667104979,2.1077947409489712,1.2959658649538128,4.354035249491079,12.016675109334281,-13.396520982982706,-8.599566972298373
0.39999999999999997,-0.15,0.1,2.57039398930074,11.15031583146141,1.729477714514206,0.8414397653543952,3.7776144370543965,11.9308602845098,-13.897228103353791,-8.379012929516255
0.39999999999999997,-0.15,0.1,3.141592653589793,11.301188196105374,1.6669666722409318,0.7991492953260976,3.665097405187748,11.856456851573205,-14.091771992190635,-8.384399694499493
0.39999999999999997,-0.15,0.30000000000000004,-3.141592653589793,10.587456828987865,1.064639224910881,1.2552677921441675,3.312739617778509,12.00382968575052,-14.638334385009896,-8.013683502899903
0.39999999999999997,-0.15,0.30000000000000004,-2.5703939893007397,10.04851162981133,1.8788545238787506,1.2434137990077139,3.4808024726519826,11.577119783056133,-16.036841632228644,-8.04699440544612
0.39999999999999997,-0.15,0.30000000000000004,-1.9991953250116865,10.208986433815179,2.0791689365337938,1.4666356293413314,3.8019720222097497,11.981498688510968,-16.799294070933573,-8.274457813135959
0.39999999999999997,-0.15,0.30000000000000004,-1.4279966607226333,10.355626214234722,2.0822700772476823,1.4191235072818502,3.715627594543645,12.051872673599123,-16.987822387729704,-8.29309078453228
0.39999999999999997,-0.15,0.30000000000000004,-0.8567979964335799,10.984225741311619,1.9344421642295047,1.7270605635379297,4.576870468495376,12.36622699485871,-17.917079282095745,-8.412343451235325
0.39999999999999997,-0.15,0.30000000000000004,-0.2855993321445265,11.129023482217399,1.9337425330814804,1.6693257467624665,4.459701312479281,12.421172299716739,-18.107153272807416,-8.405273917327133
0.39999999999999997,-0.15,0.30000000000000004,0.2855993321445265,11.505191053309124,1.74277383730556,1.6171512924909857,4.8634906746608575,12.669661457334923,-18.779620638758693,-8.373030219488315
0.39999999999999997,-0.15,0.30000000000000004,0.8567979964335799,11.647355399696409,1.739703002610439,1.559181144792064,4.707297240040338,12.683947431278527,-18.960803235163898,-8.374734462726016
0.39999999999999997,-0.15,0.30000000000000004,1.4279966607226333,11.513831485967117,1.5765789520408238,1.463078937610041,4.269888756922689,12.701613918460435,-19.322916060133565,-8.444783145467417
0.39999999999999997,-0.15,0.30000000000000004,1.9991953250116863,11.64315132219146,1.5549267281190455,1.4425081595601121,4.099020064485725,12.677733951884782,-19.50229288290797,-8.449988024741318
0.39999999999999997,-0.15,0.30000000000000004,2.57039398930074,11.062071994642734,1.3831341651386397,1.3887984630993955,3.4758861251186532,12.528577918501751,-20.12959758064123,-8.406616819040416
0.39999999999999997,-0.15,0.30000000000000004,3.141592653589793,11.184564661344782,1.3618576222770098,1.4091919645779316,3.3238321592083624,12.477609669566846,-20.308698127668844,-8.416581249278005
0.39999999999999997,-0.15,0.5,-3.141592653589793,10.30247461822066,1.283879671138283,2.2746249727732297,3.393978300409651,13.164453584591227,-21.297645982125545,-8.466526255578705
0.39999999999999997,-0.15,0.5,-2.5703939893007397,10.078012511302804,1.3838966785187572,2.1289127916592494,3.5329498823287664,13.045964949406917,-22.240120737498465,-8.545374122980858
0.39999999999999997,-0.15,0.5,-1.9991953250116865,10.239093444369596,1.4348717517024407,2.1386531836270497,3.463610666362556,13.05180211298635,-22.453327083335527,-8.550823767975496
0.39999999999999997,-0.15,0.5,-1.4279966607226333,10.62469326052445,1.4407552621212347,1.8377505939146794,4.271435610760136,12.807395235067228,-23.59504511144752,-8.471673417274275
0.39999999999999997,-0.15,0.5,-0.8567979964335799,10.774586932406002,1.4680227042852398,1.8456196462360537,4.164377808738491,12.845395182470693,-23.793835176785326,-8.474397791159333
0.39999999999999997,-0.15,0.5,-0.2855993321445265,11.345264813802416,1.481798353568477,1.7692577838275838,4.898971975429129,13.015662363152131,-24.627016812774894,-8.20685206623975
0.39999999999999997,-0.15,0.5,0.2855993321445265,11.511570316304876,1.3438891726726783,1.5995818004725622,4.866448789107143,13.408391518316986,-25.026181608908,-8.029476997361536
0.39999999999999997,-0.15,0.5,0.8567979964335799,11.568305045523479,1.0463956286433007,1.4144195896451146,4.650597167329625,13.566711660323117,-25.482189663386727,-8.149315958384532
0.39999999999999997,-0.15,0.5,1.4279966607226333,11.467101015752817,0.937378714760379,1.5430159954515899,4.30478924037585,13.484788750695875,-25.812472107821474,-8.235946505754768
0.39999999999999997,-0.15,0.5,1.9991953250116863,11.597003082635299,0.9293539003371689,1.6187203328090547,4.149498779440424,13.427238880292547,-25.983993018810935,-8.250396235537174
0.39999999999999997,-0.15,0.5,2.57039398930074,10.890026568275651,1.1742561499013717,2.10861672587879,3.586328381816471,13.220788546583394,-26.62147510217431,-8.50758986665187
0.39999999999999997,-0.15,0.5,3.141592653589793,11.024801641150692,1.2220829180654884,2.1662318498783133,3.462394058497543,13.20252210756027,-26.818118234755012,-8.502865865151735
0.39999999999999997,0.0,0.1,-3.141592653589793,11.328882045141688,1.6904699834862307,0.7117760105997488,3.633015471136624,11.731727827839219,-26.694436669372912,-8.401821676778344
0.39999999999999997,0.0,0.1,-2.5703939893007397,11.493100347016608,1.6316249927734483,0.682507647703812,3.5386392447043518,11.664588171814728,-26.896902901503502,-8.40543950888268
0.39999999999999997,0.0,0.1,-1.9991953250116865,11.550151292425168,1.1980056581410385,0.40154487407159795,4.151178348325314,10.589720752334253,-27.10724814178665,-7.0753545080763445
0.39999999999999997,0.0,0.1,-1.4279966607226333,11.753231811866952,1.1735917813711476,0.4195022308220677,4.1007219478747166,10.376614616003971,-27.115604611236503,-7.028233984269911
0.39999999999999997,0.0,0.1,-0.8567979964335799,12.146414775234712,1.3560663798564296,0.25981659508865784,4.930300137694931,9.92067675428264,-26.432815123888062,-6.653166318424723
0.39999999999999997,0.0,0.1,-0.2855993321445265,12.341818420445481,1.4405604054389958,0.26001878253275695,5.11330115842481,9.530647349808163,-26.194764612145878,-6.772571494447243
0.39999999999999997,0.0,0.1,0.2855993321445265,12.481100192984107,1.4366280428945792,0.2750314756153604,5.081797249685989,9.042113301019194,-26.13646365329949,-7.008607945885956
0.39999999999999997,0.0,0.1,0.8567979964335799,12.698839525302422,1.4257314075459144,0.3192176740842791,5.019898866219343,8.813537252285775,-26.140457391567544,-7.052892956982637
0.39999999999999997,0.0,0.1,1.4279966607226333,12.767094857955437,1.2111610217975455,0.21954180108452112,4.516221943970111,8.248382160046036,-26.44759682624716,-7.159223832177841
0.39999999999999997,0.0,0.1,1.9991953250116863,12.957275693888638,1.2161596616369281,0.24796588986983759,4.45171534486888,8.008727207405508,-26.47056281590769,-7.152145031185344
0.39999999999999997,0.0,0.1,2.57039398930074,12.980179975329902,1.106908891044756,-0.03936666406506936,3.80618923252095,7.285837374898732,-26.485273316001074,-6.694189617695537
0.39999999999999997,0.0,0.1,3.141592653589793,13.170877263540897,1.1262219921731023,-0.024897837714876914,3.7877096750741335,7.073554263819804,-26.378863767220608,-6.708731244679986
0.39999999999999997,0.0,0.30000000000000004,-3.141592653589793,13.138508362654234,0.398469573967703,-0.5757422239153862,3.3184416587785677,6.31585032006411,-26.547959976294546,-6.86514712986107
0.39999999999999997,0.0,0.30000000000000004,-2.5703939893007397,12.989794713294636,0.5456269793987477,-0.7943746903412063,3.5130304372200545,5.448926372323847,-26.397371075378004,-6.853663787564322
0.39999999999999997,0.0,0.30000000000000004,-1.9991953250116865,13.136281918153456,0.5752195762624174,-0.6931458637288975,3.6055942009736697,5.257941979535484,-26.37181461772254,-6.8859934628936434
0.39999999999999997,0.0,0.30000000000000004,-1.4279966607226333,12.906601703321066,0.882342513864249,-0.8062498080953829,4.18697614278507,4.481582684528089,-26.04296933250323,-6.936086435829394
0.39999999999999997,0.0,0.30000000000000004,-0.8567979964335799,13.07575569274308,0.8837752052360319,-0.7251866615870779,4.331394284314626,4.293772714868844,-26.0223847781611,-6.94801659941585
0.39999999999999997,0.0,0.30000000000000004,-0.2855993321445265,12.872878820490193,0.9647890399876251,-0.5590179328881912,4.638660405256999,3.4368928114372417,-26.00310621357252,-7.353109954680977
0.39999999999999997,0.0,0.30000000000000004,0.2855993321445265,13.054885609064621,0.971295004213652,-0.43674069517673225,4.723349393169025,3.2406276061557135,-26.045877286666126,-7.371712689700046
0.39999999999999997,0.0,0.30000000000000004,0.8567979964335799,13.075266128035114,0.8570266255256228,-0.3734051825251293,4.578769041110601,2.5246531553036475,-26.345939790400774,-7.660834419305803
0.39999999999999997,0.0,0.30000000000000004,1.4279966607226333,13.247021573157257,0.874723324115735,-0.274346637861695,4.59939821910009,2.324737986618808,-26.45503607269931,-7.663984548401699
0.39999999999999997,0.0,0.30000000000000004,1.9991953250116863,13.448895876302563,0.5295788405494316,-0.36419041416432824,3.8532591116081925,1.7437438248884967,-26.84988505704663,-7.319449085149874
0.39999999999999997,0.0,0.30000000000000004,2.57039398930074,13.602187868524025,0.5255892378442709,-0.26151915736039577,3.859569651219427,1.5352890809436581,-26.870737088364486,-7.29049876239095
0.39999999999999997,0.0,0.30000000000000004,3.141592653589793,13.238958083836126,0.42543252904826845,-0.6769984933084116,3.3175156873371376,0.03973455039570697,-26.550641575766075,-6.815412282051281
0.39999999999999997,0.0,0.5,-3.141592653589793,13.134989082629488,-0.6696470558626204,-0.3641850470752088,3.28540200791891,0.3525900166211895,-27.38925758190811,-7.543745359535222
0.39999999999999997,0.0,0.5,-2.5703939893007397,13.463453285028505,-1.2727556437352567,-1.024979033801363,3.312912366546496,-0.27106834749425807,-28.00372556719283,-7.781409042582312
0.39999999999999997,0.0,0.5,-1.9991953250116865,13.688835002301083,-1.376385866143534,-0.9878517088065398,3.219001969666309,-0.30634419630510457,-28.12676617644213,-7.762933141857342
0.39999999999999997,0.0,0.5,-1.4279966607226333,14.00283750519527,-1.9246930727819278,-1.1593705427200418,3.934250464904546,-0.21175706148745918,-29.47706684071027,-8.075108184637957
0.39999999999999997,0.0,0.5,-0.8567979964335799,14.16472143955377,-1.9650715023216854,-1.1966959042748049,3.8484681730026526,-0.10114741228668553,-29.64666575631866,-8.105511850350604
0.39999999999999997,0.0,0.5,-0.2855993321445265,14.68872990398893,-1.8393153701685254,-1.0920008885539083,4.6090457960925,0.16898562513295767,-30.498065120564412,-8.022038839716233
0.39999999999999997,0.0,0.5,0.2855993321445265,14.851431822865306,-1.8631520054137316,-1.1552109384692135,4.490474507983565,0.29281242092268256,-30.65351903753207,-8.001983810024848
0.39999999999999997,0.0,0.5,0.8567979964335799,14.989555645156884,-1.6476738282343262,-1.3239770823719101,4.548737568037774,1.0100236104756624,-31.12286028810441,-7.5879995769408
0.39999999999999997,0.0,0.5,1.4279966607226333,15.16871562117834,-1.6462935986454172,-1.3717268115390828,4.338705335683876,1.0886378695592194,-31.206986964649346,-7.572856315416174
0.39999999999999997,0.0,0.5,1.9991953250116863,14.808782160652763,-0.7661330248334972,-1.5064261553715108,4.028202230350117,1.1072279015816489,-32.2838474967869,-8.069595264908855
0.39999999999999997,0.0,0.5,2.57039398930074,14.488268750153601,-0.8859265995423679,-1.1461157972548106,3.6869541356771274,0.8572657734943471,-32.62912172620181,-8.241785957529352
0.39999999999999997,0.0,0.5,3.141592653589793,14.619542831982514,-0.9164890341560195,-1.0542461900573041,3.562208990723448,0.7914043393308723,-32.80462657732224,-8.248371860957986
0.39999999999999997,0.14999999999999997,0.1,-3.141592653589793,15.380340676384273,-1.4676541984901017,-2.415288219682473,3.894514399312133,-0.2032739987886992,-32.47321667648659,-7.9197063249048565
0.39999999999999997,0.14999999999999997,0.1,-2.5703939893007397,15.556347884669252,-1.3963959859625181,-2.4500434030774128,3.7887907429367154,-0.35432326956044413,-32.619335236655225,-7.9444595133369
0.39999999999999997,0.14999999999999997,0.1,-1.9991953250116865,15.449377500588032,-1.0955958398198948,-3.003676821545006,3.9555588692320915,-1.312713765351169,-33.037758600437506,-7.381930136918271
0.39999999999999997,0.14999999999999997,0.1,-1.4279966607226333,15.628856599285513,-1.0794909059417859,-2.978305930147906,3.95600998336135,-1.5363121382326086,-33.12129195085624,-7.365990014973458
0.39999999999999997,0.14999999999999997,0.1,-0.8567979964335799,15.806192034306509,-1.2953668616028549,-3.223357736722163,4.8181803405400725,-2.154701031193907,-32.7022488022266,-6.813123566483973
0.39999999999999997,0.14999999999999997,0.1,-0.2855993321445265,15.96733100570058,-1.4523615828352492,-3.2496701781348296,5.175415323606556,-2.510190398339481,-32.440910041713465,-6.844741119824974
0.39999999999999997,0.14999999999999997,0.1,0.2855993321445265,16.099064591053335,-1.5396141530354408,-3.249655482683483,5.351254751942724,-3.0111863187709056,-32.30966196573739,-7.109774426295831
0.39999999999999997,0.14999999999999997,0.1,0.8567979964335799,16.250355505124922,-1.5055242670142825,-3.2693342382099244,5.292069053744743,-3.524193357782034,-32.418250647379146,-7.430858509544995
0.39999999999999997,0.14999999999999997,0.1,1.4279966607226333,16.46985840798543,-1.3574686698455876,-3.315748608648437,4.965762681426287,-3.8596053803163533,-32.736367877994944,-7.517878879884229
0.39999999999999997,0.14999999999999997,0.1,1.9991953250116863,16.721989011605213,-1.2092282956254345,-3.3725418372449565,4.521159723342038,-4.17722775927683,-33.08555343952298,-7.345242477381234
0.39999999999999997,0.14999999999999997,0.1,2.57039398930074,16.91136929402682,-1.2311950680435406,-3.3524334419751063,4.537691446557486,-4.411096041921744,-33.14405798149,-7.320154054754373
0.39999999999999997,0.14999999999999997,0.1,3.141592653589793,17.010363424750192,-1.270349206404387,-3.628537016534679,3.7424724159912697,-5.324553796344211,-33.07218871096158,-6.322016815212528
0.39999999999999997,0.14999999999999997,0.30000000000000004,-3.141592653589793,17.302390465029724,-0.5734818152876777,-4.071491404932868,3.3892178367676493,-5.6053642950542235,-33.19409904686062,-6.664146861372347
0.39999999999999997,0.14999999999999997,0.30000000000000004,-2.5703939893007397,16.956563031629976,-0.7242745429983243,-4.214204079453408,3.458104465545756,-6.504176646429638,-32.75212638120157,-6.497169904034727
0.39999999999999997,0.14999999999999997,0.30000000000000004,-1.9991953250116865,16.733201748849794,-0.9453719157080881,-4.2416262020056985,3.778758573513142,-7.038011356761593,-32.40167042013227,-6.4858862898164205
0.39999999999999997,0.14999999999999997,0.30000000000000004,-1.4279966607226333,16.883667638236915,-0.9913277792853068,-4.18872650893998,3.930157065161958,-7.193911860817278,-32.30697142054822,-6.5176078287648345
0.39999999999999997,0.14999999999999997,0.30000000000000004,-0.8567979964335799,16.7021169388651,-1.4463401911112839,-4.3734112999134975,4.427036457323419,-7.817036342994998,-31.775731907020592,-7.0220756101833475
0.39999999999999997,0.14999999999999997,0.30000000000000004,-0.2855993321445265,16.484489147015733,-1.147999730985581,-4.013894174080093,4.668368288375838,-8.717560897001414,-32.09688005104298,-7.3681660160012346
0.39999999999999997,0.14999999999999997,0.30000000000000004,0.2855993321445265,16.45588565293799,-1.0911948356302053,-3.830265430900366,4.820218510078197,-9.312206214662147,-32.23311335478658,-7.607282530547
0.39999999999999997,0.14999999999999997,0.30000000000000004,0.8567979964335799,16.63659221332729,-1.1123433025161529,-3.7183796802051226,4.9140472086251865,-9.491322218064184,-32.32332893343529,-7.630928442047818
0.39999999999999997,0.14999999999999997,0.30000000000000004,1.4279966607226333,16.768954570297844,-0.9404099179935431,-3.7308238786910106,4.645187678443274,-10.09022950743891,-32.77840851887008,-7.842477922557322
0.39999999999999997,0.14999999999999997,0.30000000000000004,1.9991953250116863,16.934207515453092,-0.961801470538783,-3.651218802987743,4.695601395530726,-10.272066044775992,-32.917908719027764,-7.842715548735499
0.39999999999999997,0.14999999999999997,0.30000000000000004,2.57039398930074,17.310519563018644,-0.624577173672848,-3.8681952095438903,3.7701449618605793,-10.9624567719384,-33.38495569985895,-7.21985158310204
0.39999999999999997,0.14999999999999997,0.30000000000000004,3.141592653589793,17.470317406422765,-0.623544485641362,-3.7760517413539483,3.822034707235742,-11.156524745505,-33.38614605159973,-7.181738734158968
0.39999999999999997,0.14999999999999997,0.5,-3.141592653589793,17.353476144674556,0.49869827889309903,-3.9108118511591172,3.5609023257762003,-11.666667621191227,-33.21939561286555,-7.905416110900792
0.39999999999999997,0.14999999999999997,0.5,-2.5703939893007397,17.198253308992417,1.0155281493562252,-3.9792944682875397,3.36674933737132,-12.152041649391547,-33.737306279663365,-8.09643088883929
0.39999999999999997,0.14999999999999997,0.5,-1.9991953250116865,17.364668246698777,1.0916612574581812,-3.9136873310810882,3.2956300414374393,-12.22561800546255,-33.91905240301833,-8.066825702627275
0.39999999999999997,0.14999999999999997,0.5,-1.4279966607226333,17.26788423408215,1.580450107436979,-4.330442521354326,3.762554363017633,-12.496960342010276,-35.32593768528322,-8.32476994504184
0.39999999999999997,0.14999999999999997,0.5,-0.8567979964335799,17.429695985105894,1.6344822771816716,-4.332539733654925,3.67997486235604,-12.445794134185476,-35.52315419933773,-8.347817284008098
0.39999999999999997,0.14999999999999997,0.5,-0.2855993321445265,17.963394558014492,1.6326805962616795,-4.3778341629063995,4.553028247093241,-12.414978572548574,-36.553913098120105,-8.279233798707127
0.39999999999999997,0.14999999999999997,0.5,0.2855993321445265,18.114213788183978,1.6583899124950219,-4.399290327923349,4.432877098376622,-12.334410479186763,-36.738744440569015,-8.27015256872387
0.39999999999999997,0.14999999999999997,0.5,0.8567979964335799,18.495546506786688,1.5221418725896119,-4.523110609186912,4.868085281927013,-11.812733076183955,-37.41332076907223,-7.898991139430389
0.39999999999999997,0.14999999999999997,0.5,1.4279966607226333,18.52778378252449,1.1565817640905756,-4.820568441256573,4.605605845257143,-11.308595177314068,-37.8871071375743,-7.792001356371983
0.39999999999999997,0.14999999999999997,0.5,1.9991953250116863,18.516649873425926,0.8563397504506091,-4.8627845607997235,4.373267977859872,-11.45664639202315,-38.36802317353882,-8.10289643401078
0.39999999999999997,0.14999999999999997,0.5,2.57039398930074,18.653362577370842,0.8445571449292375,-4.782376497722445,4.216953062385367,-11.53424443597304,-38.528236522789456,-8.119231453100515
0.39999999999999997,0.14999999999999997,0.5,3.141592653589793,17.911172310797205,0.9929821052491283,-4.237128328648546,3.6442052513199523,-11.839332315900378,-39.10963293329318,-8.351563132228717
0.39999999999999997,0.3,0.1,-3.141592653589793,18.916476727023174,1.530924904838049,-5.42379938953089,4.240763079400115,-12.482427879257118,-38.775018791363514,-7.904879160152479
0.39999999999999997,0.3,0.1,-2.5703939893007397,19.066644072126394,1.4707085074114077,-5.474279500602633,4.112091006583371,-12.637376201758196,-38.91921348165393,-7.91674369476307
0.39999999999999997,0.3,0.1,-1.9991953250116865,18.823431827365535,1.1456760758785867,-5.945363880860253,4.006115570777872,-13.52815574179785,-39.38662406789891,-7.465316068213735
0.39999999999999997,0.3,0.1,-1.4279966607226333,18.98594323720067,1.1192539339303742,-5.92737426195647,3.9711577275480954,-13.75050888118857,-39.48086640460225,-7.4551049475912015
0.39999999999999997,0.3,0.1,-0.8567979964335799,19.132607208587096,1.3649028207507083,-6.249284896231366,5.018223869796786,-14.5261615235795,-39.09403712542754,-6.59900551601537
0.39999999999999997,0.3,0.1,-0.2855993321445265,19.31027976852063,1.6090960704637196,-6.306658483480072,5.571155278495152,-14.759780903958656,-38.69245235375178,-6.464228264828487
0.39999999999999997,0.3,0.1,0.2855993321445265,19.469213985506205,1.7260674031772094,-6.41999851514898,5.779457170605511,-15.137380171084347,-38.393195322069836,-6.768747787647495
0.39999999999999997,0.3,0.1,0.8567979964335799,19.584792142797852,1.7573239352453627,-6.566501612123864,5.830226455135822,-15.81318793337878,-38.36785763931719,-7.444781076569827
0.39999999999999997,0.3,0.1,1.4279966607226333,19.744793364890825,1.732714385546996,-6.686636202805872,5.7974563667067205,-16.24998345001647,-38.629634132933,-7.868706244424335
0.39999999999999997,0.3,0.1,1.9991953250116863,19.884269587066417,1.8030583862457583,-6.783762728288081,5.894925955362636,-16.475280485945223,-38.941028181717996,-8.05194536028979
0.39999999999999997,0.3,0.1,2.57039398930074,19.64051861942673,2.2893786434366614,-6.968254010833206,6.940271421006644,-16.74235617176387,-39.07840934788639,-8.484857785004117
0.39999999999999997,0.3,0.1,3.141592653589793,19.37982941261282,2.5928607853039516,-7.159011761019241,7.438378050057169,-16.87659679305155,-39.53029019798782,-8.613722791521356
0.39999999999999997,0.3,0.30000000000000004,-3.141592653589793,19.43359255602696,2.2134241147442295,-6.991528031018359,7.697736007725616,-16.555847220446175,-39.39487244726283,-9.190630239740347
0.39999999999999997,0.3,0.30000000000000004,-2.5703939893007397,19.565615975045322,2.2489801625291217,-7.068589997102771,7.794269858656458,-16.42137394312358,-39.567421264673186,-9.202314343063941
0.39999999999999997,0.3,0.30000000000000004,-1.9991953250116865,18.277790289552133,1.5903406564351004,-7.7408704455783175,8.114740051359616,-14.932320994988205,-40.677067112104204,-9.42622070866267
0.39999999999999997,0.3,0.30000000000000004,-1.4279966607226333,18.195546371516983,1.234896085108767,-8.108182399843628,7.928242038855455,-15.136022019095769,-41.68313184208385,-9.011600652519391
0.39999999999999997,0.3,0.30000000000000004,-0.8567979964335799,18.33314336278208,1.2208107137813229,-8.094833326437799,8.01991199008114,-15.20835459493722,-41.87913872331454,-8.991611277974668
0.39999999999999997,0.3,0.30000000000000004,-0.2855993321445265,18.730778918411705,1.4367221699248085,-8.223094081605492,7.052353469119294,-15.470907689480061,-43.08984209900641,-8.851314261587918
0.39999999999999997,0.3,0.30000000000000004,0.2855993321445265,18.872668859879774,1.407286455882539,-8.200301676397833,7.158485380920352,-15.520432930430937,-43.29555341766567,-8.866860883961163
0.39999999999999997,0.3,0.30000000000000004,0.8567979964335799,19.402054573946298,1.6173007689648677,-7.57448879240748,6.33482102165446,-15.895473534944438,-44.23800052195572,-8.555954795421394
0.39999999999999997,0.3,0.30000000000000004,1.4279966607226333,19.623928984430727,1.6240007609656988,-7.586856022159134,6.2430957209169,-15.896247475789215,-44.67722502978475,-8.554416512737317
0.39999999999999997,0.3,0.30000000000000004,1.9991953250116863,19.54464411137469,1.6732829076977789,-7.636328041928422,6.687856861462063,-15.94063624803783,-44.89181267689195,-8.641975257872975
0.39999999999999997,0.3,0.30000000000000004,2.57039398930074,19.390563029400415,1.7245362449071495,-7.683756892975792,7.189579850066683,-15.95097491999318,-45.12298097038095,-8.69511144807871
0.39999999999999997,0.3,0.30000000000000004,3.141592653589793,19.503977617593623,1.735121890822044,-7.707168880018743,7.354977957285137,-15.937456982728271,-45.31568099456107,-8.702315388669017
0.39999999999999997,0.3,0.5,-3.141592653589793,19.218064084504476,1.3390130561961595,-7.4281900474297045,7.518342747317953,-15.661374198554299,-45.45865474919219,-9.128895716096409
0.39999999999999997,0.3,0.5,-2.5703939893007397,19.334376291248773,1.3653819326277132,-7.372926427348302,7.664248097741702,-15.557429955177476,-45.62963236009919,-9.144969701046781
0.39999999999999997,0.3,0.5,-1.9991953250116865,18.60369020209268,1.5196806793565467,-6.964176031388728,7.70657081233947,-14.252952478525405,-46.23708713389621,-10.2151193895549
0.39999999999999997,0.3,0.5,-1.4279966607226333,18.846099199249714,1.6103510874288556,-6.714932180660396,7.217971561524029,-13.757088650924937,-45.79788450153158,-10.979728522021501
0.39999999999999997,0.3,0.5,-0.8567979964335799,19.022798378752036,1.6332507303171426,-6.699630111890304,7.261998166872509,-13.5907625369227,-45.62511522083861,-10.993779864726427
0.39999999999999997,0.3,0.5,-0.2855993321445265,19.362954747280117,1.2430975323134497,-6.752915270192292,6.177904463902336,-13.437006530901487,-44.762231825280246,-11.459217576304036
0.39999999999999997,0.3,0.5,0.2855993321445265,19.57663759510403,1.1184996004001448,-6.676746399882317,5.938301865259851,-13.392463288583537,-44.3184623788268,-11.385609553188381
0.39999999999999997,0.3,0.5,0.8567979964335799,19.771993163441227,0.906790476230348,-6.536418316553141,5.564677496792877,-13.57737892554743,-43.8751849674352,-11.432626865196529
0.39999999999999997,0.3,0.5,1.4279966607226333,19.904807821601867,0.5086064763256755,-6.415131174292446,4.942351097707033,-13.6159838552637,-43.4123201192495,-11.269648252111661
0.39999999999999997,0.3,0.5,1.9991953250116863,19.95164713511552,0.15281634521866513,-6.325189985863225,4.426030702633391,-13.830052183083794,-42.973267934622335,-11.26937866558074
0.39999999999999997,0.3,0.5,2.57039398930074,20.07515922254225,0.13906172537472047,-6.199370071606756,4.386072100446805,-13.939727499277092,-42.79615138200348,-11.286033457540666
0.39999999999999997,0.3,0.5,3.141592653589793,19.875802009655,-0.4942453350273627,-6.437223175155757,3.7471746170122033,-14.54885964988488,-41.84905196747843,-11.224945165860865
0.5,-0.3,0.1,-3.141592653589793,18.941389000674832,0.8462000494247898,-7.034870080258384,3.9315571165363843,-16.105804438472564,-42.54974762533018,-9.695835172813117
0.5,-0.3,0.1,-2.5703939893007397,19.065883533729206,0.8917921597090429,-7.003306239003255,4.020654105964312,-16.316579297948813,-42.653877227957196,-9.705308817954105
0.5,-0.3,0.1,-1.9991953250116865,18.62960149067605,1.276822710598926,-7.191463222600354,4.723779719214688,-16.970849646858653,-43.23302101344849,-9.688198298512528
0.5,-0.3,0.1,-1.4279966607226333,18.776300546533882,1.3003576125502896,-7.2040548415821455,4.900714354822604,-17.13452177086009,-43.34374437661635,-9.70521271956487
0.5,-0.3,0.1,-0.8567979964335799,18.404725529691444,1.6283557401911721,-7.254772877316895,5.8614859731988975,-17.622252893597217,-43.6827634800871,-10.040054519228809
0.5,-0.3,0.1,-0.2855993321445265,18.657413200328136,1.76699095592046,-7.694117960920169,5.925936482602056,-18.212858245185583,-43.61496953519147,-11.045963353781216
0.5,-0.3,0.1,0.2855993321445265,18.698771489391756,1.8476898984027836,-7.854020686337952,6.11317497644992,-18.435576734599394,-43.318024346181595,-11.342858518831992
0.5,-0.3,0.1,0.8567979964335799,18.295612676431585,1.8623023597647905,-7.999072336676928,6.939768261433778,-18.577964931678636,-43.20549533803426,-11.334047219930998
0.5,-0.3,0.1,1.4279966607226333,18.396298929639926,1.8721175410375486,-8.078790375303116,7.095834692201877,-18.6459395371109,-43.023354025027885,-11.34845122096742
0.5,-0.3,0.1,1.9991953250116863,17.700321344228787,1.622485910679534,-8.4338391563019,7.706010538692622,-18.896910028084253,-42.286295354951775,-11.209443774436044
0.5,-0.3,0.1,2.57039398930074,17.814797808783,1.5758888157642028,-8.46469326750607,7.815786992595377,-19.029777005326764,-42.10657945834477,-11.181065184921215
0.5,-0.3,0.1,3.141592653589793,17.58722584487649,1.3132155702456858,-8.707577177582671,7.66085053655618,-20.189578857888,-41.595853378636974,-9.98842831746757
0.5,-0.3,0.30000000000000004,-3.141592653589793,17.503066812680224,0.8004544911225021,-8.5204368695164,7.807213478505398,-20.177409151055652,-41.35911481661696,-9.630859145013881
0.5,-0.3,0.30000000000000004,-2.5703939893007397,17.65922457176432,0.8167766080316248,-8.44450083428876,7.920133148004765,-20.313840967845525,-41.47043790102224,-9.606743126939302
0.5,-0.3,0.30000000000000004,-1.9991953250116865,17.63619604030092,1.1738133770035242,-8.759948404757019,7.174353532315964,-21.148044279258137,-42.6512809089983,-8.991361934949483
0.5,-0.3,0.30000000000000004,-1.4279966607226333,17.780207042745594,1.1521076462840243,-8.718020736406197,7.219368375826894,-21.250416221253914,-42.873519242808946,-9.000879369806512
0.5,-0.3,0.30000000000000004,-0.8567979964335799,18.20784132495959,1.6866787239109746,-8.464891830563264,6.076411014331286,-21.382084890095378,-43.93110616115315,-8.66571097788544
0.5,-0.3,0.30000000000000004,-0.2855993321445265,18.455516267310202,1.7443790620515114,-8.5696985661445,5.828442882417787,-21.526492618635686,-44.44609831610791,-8.942230725856495
0.5,-0.3,0.30000000000000004,0.2855993321445265,18.615922565074364,1.776100252222923,-8.600395052261517,5.793267334125473,-21.34048680592336,-44.868907576289274,-8.825849719486945
0.5,-0.3,0.30000000000000004,0.8567979964335799,18.720240611022273,1.759689222320447,-8.61311086958066,5.87400388335626,-21.246964923547864,-45.26498100487729,-8.754962712988593
0.5,-0.3,0.30000000000000004,1.4279966607226333,18.439433895025477,1.4403528066063092,-8.632556150273652,6.84657414573683,-21.204431439125276,-45.42013938284769,-8.38663351965993
0.5,-0.3,0.30000000000000004,1.9991953250116863,18.234133601695106,1.245116025074798,-8.657474744181181,7.422901986375859,-21.38937726842525,-45.76039532614271,-8.134428617090459
0.5,-0.3,0.30000000000000004,2.57039398930074,18.35762268493604,1.2047247742410105,-8.622567778491714,7.533894713208834,-21.522167685626922,-45.94838785877924,-8.107811780003521
0.5,-0.3,0.30000000000000004,3.141592653589793,17.281939639365625,1.9164457266988462,-7.8432357493149985,7.842670042416665,-22.87228815224369,-47.1365709185977,-8.118519879631986
0.5,-0.3,0.5,-3.141592653589793,17.268326127075202,1.332250226012926,-7.756974792492923,7.770326052825848,-22.782123191076877,-47.25701069279057,-7.627936214105045
0.5,-0.3,0.5,-2.5703939893007397,17.430847465896967,1.3620650251128519,-7.6561880058286045,7.914274918934491,-22.749104282953645,-47.36339199844149,-7.659881210537871
0.5,-0.3,0.5,-1.9991953250116865,17.555356885457545,1.5882475127796798,-7.261844811128674,7.095133763336306,-22.3770364499331,-48.83429898148504,-8.245960170891204
0.5,-0.3,0.5,-1.4279966607226333,17.689378956465337,1.6299180963355937,-7.2576767103749855,7.178639334353232,-22.281806946651184,-49.0448152851548,-8.232263388299845
0.5,-0.3,0.5,-0.8567979964335799,18.31960958118998,1.3003682663453908,-7.193093263659235,5.8912311537961575,-21.91387873622714,-50.22988604642894,-7.870464523767587
0.5,-0.3,0.5,-0.2855993321445265,18.26672559540774,1.0574618451415208,-6.198465354439562,5.570576242718064,-22.956721115409817,-50.57070128650592,-7.9504714336715505
0.5,-0.3,0.5,0.2855993321445265,18.391459598340642,1.0414505143983506,-6.197521419727224,5.651334780682461,-23.519218990668563,-50.96890392912368,-8.499542306937
0.5,-0.3,0.5,0.8567979964335799,18.519263402022684,1.0313564954354375,-6.1612047812642805,5.692164330611792,-23.64464711977808,-51.388665698794775,-8.601088011983398
0.5,-0.3,0.5,1.4279966607226333,18.506975047495274,0.6379003178859651,-6.056838246576818,4.957476245498201,-23.69046273510896,-51.799259768607435,-8.277579238459708
0.5,-0.3,0.5,1.9991953250116863,18.382628701483068,0.19595199876506678,-5.998041094662687,4.18078038111466,-24.03193306999912,-52.25276656071669,-7.850477609946568
0.5,-0.3,0.5,2.57039398930074,18.490450588279312,0.16503410508480912,-5.8823336546948255,4.172109441408268,-24.180363202987166,-52.4086872988871,-7.8303367737555405
0.5,-0.3,0.5,3.141592653589793,17.884422674190564,0.15341375167144783,-6.1777886025044495,4.114811327716154,-26.182340424515452,-52.342745563879056,-6.406318962606214
0.5,-0.15,0.1,-3.141592653589793,18.154954402447146,1.113945220522501,-6.056550152261543,4.038718411871687,-25.713337862618705,-51.776604761774706,-7.365689559828967
0.5,-0.15,0.1,-2.5703939893007397,18.316771118011108,1.0902351826297108,-6.04914762974068,4.017504730613596,-25.952986049238213,-51.84898553454856,-7.3762464425715395
0.5,-0.15,0.1,-1.9991953250116865,18.27854208236463,1.3263096387214315,-6.386738600896036,4.910959639396821,-26.81337563681101,-51.674608623786845,-6.656255627583541
0.5,-0.15,0.1,-1.4279966607226333,18.38809709582455,1.5973054786513823,-6.436509283869806,5.54723264994571,-27.05394233729346,-51.320525122971006,-6.416468367319406
0.5,-0.15,0.1,-0.8567979964335799,18.542156492380222,1.7062569666539682,-6.5757409580747765,5.747435011070663,-27.341339173071542,-50.994438151658166,-6.638777950273218
0.5,-0.15,0.1,-0.2855993321445265,18.66201808006585,1.7737743546420228,-6.798917133361129,5.829593900561745,-27.945204299429076,-50.873149328955144,-7.323489080277274
0.5,-0.15,0.1,0.2855993321445265,18.804682161187905,1.7636530476797252,-6.960780540069318,5.820911101344115,-28.46502742526881,-51.09499754841689,-7.883645301525983
0.5,-0.15,0.1,0.8567979964335799,18.957930641324538,1.7881131566470114,-7.046110549920208,5.840671669431207,-28.70465040351398,-51.431260972573334,-8.082024076089459
0.5,-0.15,0.1,1.4279966607226333,18.799967998809514,2.0561095875431423,-7.186916676465848,6.504945729488315,-28.92067928663491,-51.57324849266752,-8.29988160121801
0.5,-0.15,0.1,1.9991953250116863,18.473933615074298,2.319403941480725,-7.407399293635438,7.182303962685766,-29.10999023804983,-51.84045725342527,-8.477189924147755
0.5,-0.15,0.1,2.57039398930074,18.584344995356645,2.343442953652259,-7.515965112402619,7.288324384359973,-29.12775369407561,-52.04303118567919,-8.480263113913972
0.5,-0.15,0.1,3.141592653589793,17.334399402047275,2.802011645615271,-7.856990789776089,7.850670202877487,-29.48987056582826,-53.34883572238977,-8.668851447379296
0.5,-0.15,0.30000000000000004,-3.141592653589793,17.571424612480556,1.550356881672103,-8.193878287958523,8.033829613424107,-28.891937462980557,-52.83131122408761,-7.9961874704298
0.5,-0.15,0.30000000000000004,-2.5703939893007397,17.277323067928627,1.9992252671739452,-7.76377472019037,7.966452666263,-28.920009055645153,-53.92883758736172,-8.394120764705834
0.5,-0.15,0.30000000000000004,-1.9991953250116865,17.404117006705828,1.9993287486641915,-7.785356636931621,8.06529157501203,-28.877360475483812,-54.131396044245264,-8.40616238565754
0.5,-0.15,0.30000000000000004,-1.4279966607226333,17.708036324546473,1.7833333926311719,-7.585292134706592,7.13948088084629,-28.581450299549672,-55.44368198907636,-8.589229653788594
0.5,-0.15,0.30000000000000004,-0.8567979964335799,18.118838689858833,1.6595692842462546,-7.608044403354759,6.593334667448994,-28.55815237414168,-56.12184546654141,-8.67908811565776
0.5,-0.15,0.30000000000000004,-0.2855993321445265,18.41820694445792,1.5819893673837364,-7.57858126514785,6.326847722462073,-28.661777716260374,-56.650051339259264,-8.765110777428793
0.5,-0.15,0.30000000000000004,0.2855993321445265,18.740495793046424,1.5767340009668676,-7.422001239351058,6.012739007340042,-28.53531373449874,-57.19965430128768,-8.459185698252446
0.5,-0.15,0.30000000000000004,0.8567979964335799,18.77468385431048,1.6235492147110322,-7.46509068512305,6.2650491978324565,-28.619522123929524,-57.498209878935135,-8.580597558567574
0.5,-0.15,0.30000000000000004,1.4279966607226333,18.577567071130108,1.7343815081671778,-7.521986458451285,6.903692097339245,-28.665799277729832,-57.66638528247979,-8.714613680843092
0.5,-0.15,0.30000000000000004,1.9991953250116863,18.695514660776904,1.7541526310635913,-7.5474761160230655,7.06093810129289,-28.647228699452263,-57.86664969745455,-8.729927157617075
0.5,-0.15,0.30000000000000004,2.57039398930074,18.045793562108233,1.9061155611859486,-7.629110084977937,7.85151459675969,-28.551044454504172,-58.42239180415768,-8.875549922861353
0.5,-0.15,0.30000000000000004,3.141592653589793,18.14954121561599,1.9182448524129487,-7.680023861466809,7.993784488200282,-28.496247274650354,-58.61401134580805,-8.881854676530295
0.5,-0.15,0.5,-3.141592653589793,17.484629476965274,0.9686862731855012,-7.521739076755424,7.86963586898186,-27.11384998023943,-59.20512192425243,-9.238393642653405
0.5,-0.15,0.5,-2.5703939893007397,17.19525560299173,0.712229036902044,-7.882101451206454,7.858076584948553,-27.38870979341621,-60.36386749771167,-8.688413423402253
0.5,-0.15,0.5,-1.9991953250116865,17.314300150732514,0.7434777049710679,-7.802277428573686,7.9241374505586375,-27.413470864434228,-60.57353716165545,-8.692131161664731
0.5,-0.15,0.5,-1.4279966607226333,17.739897618253167,1.1825830459153523,-8.075531079843833,7.046770661198346,-27.776241511573343,-61.75997785552668,-8.50217258767965
0.5,-0.15,0.5,-0.8567979964335799,17.868721585335045,1.1942664925518005,-8.023751282133738,7.15080473266365,-27.765729227269542,-61.96984346365871,-8.500005263816174
0.5,-0.15,0.5,-0.2855993321445265,18.47280584743034,1.4621659709364316,-7.833653467523352,6.400061827540352,-26.986697650968072,-62.71487591808323,-7.358295902938068
0.5,-0.15,0.5,0.2855993321445265,18.685674865726817,1.482470174825136,-7.298947495543409,6.5284131411908,-26.38035424234728,-62.51291796534727,-6.263071066720261
0.5,-0.15,0.5,0.8567979964335799,18.58456405632113,1.6330263146488826,-7.211547288471108,7.039812536493742,-26.271605159051315,-62.22470066182627,-6.207178414225727
0.5,-0.15,0.5,1.4279966607226333,18.729852508019807,1.6446040219094389,-7.189288204318556,7.209914433209536,-26.173979074500625,-62.05134662411142,-6.199105915105935
0.5,-0.15,0.5,1.9991953250116863,18.282369215896733,2.0199301670007976,-6.995792642670193,7.8724598860788095,-25.84389871179528,-61.35518665879083,-6.277460391814309
0.5,-0.15,0.5,2.57039398930074,18.41808512578368,2.052266580727801,-7.017903714285199,7.976785028280668,-25.666651633690318,-61.20948127043466,-6.288680141767329
0.5,-0.15,0.5,3.141592653589793,18.09636145424569,2.2887782017183516,-6.656385834536122,7.9789019992274195,-24.501552179098688,-60.589277685339766,-7.1953458833632995
0.5,0.0,0.1,-3.141592653589793,18.247837722717044,3.1683851940024135,-6.946489179126469,7.654504200307961,-24.8611460659678,-59.46047289484432,-7.364508337725148
0.5,0.0,0.1,-2.5703939893007397,17.369843951236057,2.970373446917447,-7.789799062399655,7.843124391882787,-23.39086381640062,-60.23575923230292,-8.654048091264034
0.5,0.0,0.1,-1.9991953250116865,17.484594453713676,2.633026026173318,-7.623469780977458,7.678833133707673,-23.052068895415776,-60.912614796038085,-8.699374950024861
0.5,0.0,0.1,-1.4279966607226333,17.609042790462063,2.595884583250266,-7.724327272289294,7.720663673048512,-23.030797866608044,-61.120354584533814,-8.693040090859302
0.5,0.0,0.1,-0.8567979964335799,18.21919867030294,2.002010373247544,-7.536231598694347,6.7978854923549745,-22.721204998275127,-62.07676921234458,-8.987096172687803
0.5,0.0,0.1,-0.2855993321445265,18.35426655121972,1.9853135939422935,-7.599076811810818,6.914866934663099,-22.754834401415994,-62.27718049601378,-9.002370370700294
0.5,0.0,0.1,0.2855993321445265,18.876170945299894,1.7725494599757456,-8.00669550182599,6.460645663867388,-23.77954537301341,-62.59071292383663,-10.547272040985803
0.5,0.0,0.1,0.8567979964335799,18.896809470242367,1.7223031248447882,-8.297697467998411,6.7909846767814805,-24.022208204842872,-62.36299290874328,-10.949676028910432
0.5,0.0,0.1,1.4279966607226333,19.045587117009212,1.7243023617847102,-8.354557026225713,6.980011489798618,-24.105553986989385,-62.21667159766995,-10.973114869569535
0.5,0.0,0.1,1.9991953250116863,18.646444276906116,1.4279198916170797,-8.617152641767092,7.691502421139365,-24.380879702811022,-61.69862955891442,-10.991837391355428
0.5,0.0,0.1,2.57039398930074,18.790296238377696,1.4006996216133556,-8.647895544152947,7.82792383907853,-24.544213054998,-61.55651793953633,-10.98438261150782
0.5,0.0,0.1,3.141592653589793,18.534119781503787,1.0415494394886307,-9.141169597606549,7.999376994747057,-25.31419424190356,-60.82439478033951,-10.394689642050777
0.5,0.0,0.30000000000000004,-3.141592653589793,18.452853986278797,0.3396952761960491,-9.01679041038292,8.090853704532302,-25.151124632991948,-60.239614002803016,-10.34170300490855
0.5,0.0,0.30000000000000004,-2.5703939893007397,18.621711681928485,0.34260542918375947,-8.847556377090307,8.101111588547509,-25.28419081080259,-60.21772335653799,-10.301528340294256
0.5,0.0,0.30000000000000004,-1.9991953250116865,18.20875579936438,0.6395644588205862,-9.118343596325362,7.848630685935585,-26.83154782683524,-61.12770046714993,-9.260241853961741
0.5,0.0,0.30000000000000004,-1.4279966607226333,18.348300047706196,0.6488064057745385,-9.031078644343218,7.845991617376584,-26.99247481750938,-61.28971707036449,-9.24295226611331
0.5,0.0,0.30000000000000004,-0.8567979964335799,18.374856334339515,1.2023644212067668,-9.05375404516144,6.972488162480544,-27.427715758453214,-62.15583641179404,-9.109098461304516
0.5,0.0,0.30000000000000004,-0.2855993321445265,18.564718155581307,1.1675211149666054,-9.002504679444115,6.976732005109198,-27.53193442376181,-62.37092531141815,-9.126383670866282
0.5,0.0,0.30000000000000004,0.2855993321445265,18.921494687491073,1.6967057854025898,-8.547866063390819,6.017499396857284,-27.674516117990503,-63.25133322206404,-8.765912549003854
0.5,0.0,0.30000000000000004,0.8567979964335799,19.015976137718738,1.6508870703220455,-8.516410277627354,6.2001803971539005,-27.577863866569192,-63.587926461820445,-8.61206599885167
0.5,0.0,0.30000000000000004,1.4279966607226333,18.92674607356349,1.5033082110282607,-8.475736410244298,6.757511005682708,-27.537956055022185,-63.80832691441246,-8.403438845017007
0.5,0.0,0.30000000000000004,1.9991953250116863,18.811097961969775,1.3694343028255584,-8.461796928656682,7.264277830304195,-27.609984260115862,-64.07555813752955,-8.271080684226437
0.5,0.0,0.30000000000000004,2.57039398930074,18.942424903461788,1.3429813792703842,-8.446928914402035,7.4102512062609405,-27.701829574736234,-64.26568228915556,-8.254050837508757
0.5,0.0,0.30000000000000004,3.141592653589793,18.26412762375245,1.167831353243127,-8.532595163823629,8.040814280282941,-28.37995331211047,-64.9053871643935,-7.834760896153092
0.5,0.0,0.5,-3.141592653589793,18.19021970392396,0.3365761324568359,-8.439869213280655,8.034562614035252,-27.686633170837204,-65.4402539276531,-7.895085772421058
0.5,0.0,0.5,-2.5703939893007397,17.515501119599296,0.9833273268990632,-7.678278764749259,8.049203541207932,-28.103729277567286,-66.05617255294004,-8.213953926040531
0.5,0.0,0.5,-1.9991953250116865,17.65259869938071,1.0324082847695413,-7.568413952473849,8.120838231174853,-28.097617544197917,-66.2424086659519,-8.229577987285849
0.5,0.0,0.5,-1.4279966607226333,17.776784978867443,1.369284774035122,-7.646341673281088,7.38836554399921,-28.16186630609903,-67.61804009262521,-8.379468785524613
0.5,0.0,0.5,-0.8567979964335799,17.911945094836454,1.3999205068801563,-7.621780944725849,7.486914099792216,-28.109226533625225,-67.8212556550599,-8.376296680575493
0.5,0.0,0.5,-0.2855993321445265,18.597797178805006,1.438146497069741,-7.587915533366051,6.432978835239459,-27.770663855146076,-68.86688968941372,-7.891053126485896
0.5,0.0,0.5,0.2855993321445265,18.859429713160957,1.50954687478151,-7.362437111899279,6.522419731584338,-26.83233282846447,-68.93053644973199,-6.751306074639289
0.5,0.0,0.5,0.8567979964335799,18.91314932040563,1.6199801757384658,-7.135295905221411,6.876259184305828,-26.54261076336805,-68.64935778656158,-6.327442952707066
0.5,0.0,0.5,1.4279966607226333,19.080029703617253,1.6306885856457953,-7.118699246377147,7.05206899820848,-26.450568409915164,-68.48273191064395,-6.311718978764794
0.5,0.0,0.5,1.9991953250116863,18.737308029517965,2.004643026669863,-6.962455220253669,7.768985911443419,-26.149527768249087,-67.87983452603594,-6.297863274373571
0.5,0.0,0.5,2.57039398930074,18.882417275591923,2.028545005652291,-6.980799946442683,7.890414012635465,-25.97482901572946,-67.73770208982613,-6.305138640351815
0.5,0.0,0.5,3.141592653589793,18.562322128809036,2.3541901978713913,-6.5586602832165015,8.073395069186427,-25.025442825049357,-66.94629748659729,-6.949031193310625
0.5,0.14999999999999997,0.1,-3.141592653589793,18.64264631057493,3.1006627641124185,-6.702027860975299,7.830263354103534,-26.600332693417627,-66.18545224372204,-5.6005848194683825
0.5,0.14999999999999997,0.1,-2.5703939893007397,18.473575636930985,2.862237957837327,-6.652271922662794,7.632272553906523,-26.662250102255122,-65.38500521872801,-5.441929598138543
0.5,0.14999999999999997,0.1,-1.9991953250116865,18.517155822267174,2.5021038147805292,-6.6607621315657966,7.199364505767157,-26.461358242964444,-64.79533552498994,-5.56486666738022
0.5,0.14999999999999997,0.1,-1.4279966607226333,18.65281177563501,2.474626067741543,-6.766993824161051,7.210811696028447,-26.43237975383033,-64.57357209671933,-5.543134125895004
0.5,0.14999999999999997,0.1,-0.8567979964335799,19.0153756318916,1.8445062826773964,-6.9190097611656745,6.008278299629069,-26.397569447619443,-63.774893505101566,-6.133237761087341
0.5,0.14999999999999997,0.1,-0.2855993321445265,19.2471166230897,1.8360610265495305,-7.185363929561354,5.818870064107287,-26.709104529798477,-63.41726128569742,-6.656681079075562
0.5,0.14999999999999997,0.1,0.2855993321445265,19.297471411607475,1.9437843397256944,-7.625135580730298,5.922288883362887,-27.2776648569265,-63.31221574711024,-7.531955474300819
0.5,0.14999999999999997,0.1,0.8567979964335799,19.454815957571967,1.9615358486423822,-7.960843424130239,5.832623611096923,-27.67482928166855,-63.607593628029676,-8.20902599327471
0.5,0.14999999999999997,0.1,1.4279966607226333,19.585183612522123,1.9871660019884168,-8.064884692602842,5.871200912806179,-27.769845808510198,-63.97045987733346,-8.323692068394354
0.5,0.14999999999999997,0.1,1.9991953250116863,19.342851207413027,1.9488373391865441,-8.201208380711225,6.535819462031683,-27.886143701232033,-64.10660605218051,-8.180385687986782
0.5,0.14999999999999997,0.1,2.57039398930074,19.073696123018387,1.8831808874022662,-8.398236679585798,7.153371875731739,-28.086117533362323,-64.27961309821856,-8.036274521630368
0.5,0.14999999999999997,0.1,3.141592653589793,19.193601538702282,1.8615252122166606,-8.469417588030314,7.288334852761177,-28.210954244765464,-64.4438250025539,-8.008477412522314
0.5,0.14999999999999997,0.30000000000000004,-3.141592653589793,18.717222685226705,1.2950501513200892,-8.355841140065571,7.837719519024253,-28.094039914353004,-64.66667646686908,-8.159172596419527
0.5,0.14999999999999997,0.30000000000000004,-2.5703939893007397,18.833277702676437,1.2650220876583214,-8.317426654297792,7.970229778177199,-28.208926347986388,-64.83988379355604,-8.14567860975441
0.5,0.14999999999999997,0.30000000000000004,-1.9991953250116865,17.85775648777305,1.9087508251211627,-7.808367985614868,7.978893789127361,-28.772923271201307,-66.44082422286664,-8.466436485756654
0.5,0.14999999999999997,0.30000000000000004,-1.4279966607226333,17.982371702074417,1.9076723723631221,-7.824855807934762,8.076073959307935,-28.743835159703885,-66.64832812416654,-8.474725803407813
0.5,0.14999999999999997,0.30000000000000004,-0.8567979964335799,18.27383695046356,1.7442299373969352,-7.659514700029452,7.151181696672857,-28.516036238886574,-67.98699634080974,-8.616674429825293
0.5,0.14999999999999997,0.30000000000000004,-0.2855993321445265,18.40394001817085,1.750235277897978,-7.683441447540467,7.258475716296897,-28.497707416008215,-68.19758912033643,-8.612176021606052
0.5,0.14999999999999997,0.30000000000000004,0.2855993321445265,19.007973133002476,1.5771150267261385,-7.650057536308764,6.306751591144414,-28.57852884669552,-69.21679615221048,-8.75325293106811
0.5,0.14999999999999997,0.30000000000000004,0.8567979964335799,19.32928028499236,1.5846001179006466,-7.505162361850748,6.003264099038663,-28.46409216585578,-69.76433880555221,-8.475253145060654
0.5,0.14999999999999997,0.30000000000000004,1.4279966607226333,19.361431576212492,1.6222434929987197,-7.543988617123174,6.252244736215705,-28.53877327154797,-70.06182573245725,-8.57893654979127
0.5,0.14999999999999997,0.30000000000000004,1.9991953250116863,19.157171360018324,1.7116236597728993,-7.59490707819727,6.891260508657766,-28.581875699212617,-70.22150657700602,-8.687208115354801
0.5,0.14999999999999997,0.30000000000000004,2.57039398930074,19.27281944250753,1.7279530839304367,-7.617886785191353,7.0517256774259796,-28.570083429974822,-70.41988533067206,-8.700009451175553
0.5,0.14999999999999997,0.30000000000000004,3.141592653589793,18.62369311911601,1.845371849549669,-7.698862790453423,7.840970033618744,-28.512067955195814,-70.96364286096842,-8.805523409229734
0.5,0.14999999999999997,0.5,-3.141592653589793,18.68935089801728,1.3544237469886178,-7.345413988583151,7.67642626706089,-28.002486099767175,-70.89318232584796,-9.197412742257358
0.5,0.14999999999999997,0.5,-2.5703939893007397,18.80684069903819,1.391928430793898,-7.304662340681199,7.81068508104486,-27.882881591183487,-71.06045215250336,-9.220495546397368
0.5,0.14999999999999997,0.5,-1.9991953250116865,18.372713593845805,1.5700955472020157,-6.900765727003944,7.327869704052058,-26.316068031776165,-71.1818117650621,-10.864899736729773
0.5,0.14999999999999997,0.5,-1.4279966607226333,18.54344726405033,1.5932633909703213,-6.871912675797562,7.403952237148996,-26.152785213823993,-71.03255573858965,-10.889901374581306
0.5,0.14999999999999997,0.5,-0.8567979964335799,18.967843677591098,1.2467796473091943,-6.864587406182481,6.16294106198655,-25.968977560584023,-70.04323925298779,-11.515018027693827
0.5,0.14999999999999997,0.5,-0.2855993321445265,19.21341463410663,1.1390287175366642,-6.859793381838747,5.887199221093704,-25.984807214252065,-69.56212748087688,-11.576696487670215
0.5,0.14999999999999997,0.5,0.2855993321445265,19.40241955405153,1.0497206891188804,-6.7485058498830375,5.715182712790527,-26.173310677064496,-69.13715818933193,-11.664671429415213
0.5,0.14999999999999997,0.5,0.8567979964335799,19.575009196112884,0.8442151702803542,-6.6388492219166695,5.420254893784691,-26.205349545331345,-68.70431120165236,-11.542093885759867
0.5,0.14999999999999997,0.5,1.4279966607226333,19.72145505628497,0.3611887412630258,-6.533736384324469,4.698037043192503,-26.291879711619355,-68.23156633769695,-11.317312804118032
0.5,0.14999999999999997,0.5,1.9991953250116863,19.850840973380276,0.35269219656530154,-6.409938448621611,4.669706630511614,-26.404214804795632,-68.04761000137363,-11.329664443845854
0.5,0.14999999999999997,0.5,2.57039398930074,19.687689685141848,-0.3413753679020365,-6.507719832226367,3.873672098749435,-26.95377400257544,-67.2545804554498,-11.26770649090759
0.5,0.14999999999999997,0.5,3.141592653589793,19.8102322336636,-0.3768810039224971,-6.413848488815295,3.8480509710857977,-27.051605374793397,-67.05703612495535,-11.25321402194507
0.5,0.3,0.1,-3.141592653589793,19.76510125147924,0.6270265950900807,-6.432002430945209,3.994930318223461,-27.45744061109058,-67.3211904584711,-10.332125509513403
0.5,0.3,0.1,-2.5703939893007397,19.89344810114142,0.628540347538876,-6.364901460509045,3.99305045562294,-27.70166280413902,-67.32189698341179,-10.310413737839273
0.5,0.3,0.1,-1.9991953250116865,19.680049839168532,0.70350363894817,-6.770631043280479,3.9759862181755636,-28.93252052361178,-67.58913954009665,-9.866696370329507
0.5,0.3,0.1,-1.4279966607226333,19.80554502999251,0.7302557332854585,-6.7236888216735,4.0443434325779775,-29.167965093619845,-67.64914595783212,-9.870634248297016
0.5,0.3,0.1,-0.8567979964335799,19.472710537698138,1.1150869615316175,-6.855866839195276,4.798142866262549,-29.884430905470257,-68.16059771554082,-9.720004815207703
0.5,0.3,0.1,-0.2855993321445265,19.62758759436883,1.1244371036622354,-6.83175544719415,4.929025376441021,-30.086875106428487,-68.2726678802724,-9.731774223923757
0.5,0.3,0.1,0.2855993321445265,19.416324308137472,1.5271254848113767,-6.72833151180491,5.819002148560635,-30.73221650629831,-68.72659416423731,-10.035691511940762
0.5,0.3,0.1,0.8567979964335799,19.698114659501314,1.5968636525456716,-6.977351742345729,5.840513903665533,-31.392804661286632,-68.63890084331392,-10.898068817865175
0.5,0.3,0.1,1.4279966607226333,19.80186797664462,1.741034577290002,-7.094592263639749,6.01148787341959,-31.720492314320712,-68.36018475856417,-11.268402413774213
0.5,0.3,0.1,1.9991953250116863,19.397207930184376,2.163552314494364,-7.342747590900415,6.997006167132495,-32.02407956080927,-68.26887252610547,-11.584887937370663
0.5,0.3,0.1,2.57039398930074,18.97207027518096,2.3465593617305904,-7.623171371230549,7.457868987489299,-32.180427681957454,-67.79573199983992,-11.671857477727201
0.5,0.3,0.1,3.141592653589793,19.063799332038624,2.3458104425253725,-7.730714264589085,7.553253174441137,-32.18914756313434,-67.5868788643989,-11.676902909653124
0.5,0.3,0.30000000000000004,-3.141592653589793,18.585660115307917,2.17491325776873,-7.558208026366799,7.8713703739999445,-31.926104475053837,-67.13767001924136,-12.070942135175502
0.5,0.3,0.30000000000000004,-2.5703939893007397,18.685782794783037,2.1814005358373745,-7.631889416722502,7.963284986526588,-31.8534931792664,-66.93339422244443,-12.079670427280126
0.5,0.3,0.30000000000000004,-1.9991953250116865,18.383709636050085,1.6572398747691253,-7.890944371354684,7.404128579718703,-31.34398283530123,-65.48521606639672,-11.94690353062047
0.5,0.3,0.30000000000000004,-1.4279966607226333,18.499818103884163,1.652430148740322,-7.917569873811297,7.502359083616868,-31.356419282149623,-65.26835583516149,-11.939241280076361
0.5,0.3,0.30000000000000004,-0.8567979964335799,19.23787049348044,1.6298421702098203,-7.927209605899028,6.10507419768543,-31.358310915641244,-63.902081469715576,-11.84715065967524
0.5,0.3,0.30000000000000004,-0.2855993321445265,19.525666900228185,1.6406929245163866,-7.93520561754749,5.833105815989314,-31.3617293961293,-63.349943166596475,-11.852108351250358
0.5,0.3,0.30000000000000004,0.2855993321445265,19.684600502515103,1.6707623025726848,-8.035414379465164,5.818914448782431,-31.305143256075368,-62.923638202592954,-11.891986541600838
0.5,0.3,0.30000000000000004,0.8567979964335799,19.81950818197189,1.6569293925152615,-8.02926644610787,5.845435312400309,-31.205907419673633,-62.51018433899623,-11.780024787321675
0.5,0.3,0.30000000000000004,1.4279966607226333,19.59881424583995,1.5886991529060297,-8.017688998198457,6.477636726334911,-31.166535752483963,-62.344006249974505,-11.691321937296363
0.5,0.3,0.30000000000000004,1.9991953250116863,19.268020853708936,1.5262448792987813,-8.009317024718293,7.187719056908675,-31.170102612728627,-62.140611981320845,-11.647622323255106
0.5,0.3,0.30000000000000004,2.57039398930074,19.362273450484356,1.519916002306307,-8.014638821095483,7.353644484315396,-31.194986319125512,-61.94058003674719,-11.647425252606782
0.5,0.3,0.30000000000000004,3.141592653589793,18.5528551552423,1.3878167696125068,-8.044320411113032,7.887567147952022,-31.294960426101763,-60.9686790527582,-11.593651436856153
0.5,0.3,0.5,-3.141592653589793,18.51963234722094,1.1865719395116976,-7.6676907495296724,7.79214559626893,-30.97240558665467,-60.94965703473433,-12.001393470406729
0.5,0.3,0.5,-2.5703939893007397,18.618329440028926,1.2190523931646593,-7.613553658955511,7.903260003339925,-30.934665136486842,-60.74044410390379,-12.017515620907004
0.5,0.3,0.5,-1.9991953250116865,18.50953285647789,0.8884075504340129,-8.404837804715331,7.304570945638012,-30.54595723983582,-59.02134440055274,-11.823320352062328
0.5,0.3,0.5,-1.4279966607226333,18.84341189409555,1.147009375855477,-8.476473523116104,6.701950729836266,-30.72449298295589,-58.30932272437046,-11.632380345744801
0.5,0.3,0.5,-0.8567979964335799,19.2944521246464,1.3914283135561072,-8.41726690714014,5.952962751734047,-30.719248142184554,-57.5961814277396,-11.392745807602342
0.5,0.3,0.5,-0.2855993321445265,19.518426491408214,1.3961479379555422,-8.290303830555318,5.777554717682348,-30.502599792836616,-57.135577898165415,-11.0991374641489
0.5,0.3,0.5,0.2855993321445265,19.565479688332616,1.2275706678203375,-7.779553609348187,5.876534706249677,-30.092288195163192,-56.83214131868325,-10.264321826683865
0.5,0.3,0.5,0.8567979964335799,19.507367216051946,1.1944238541850607,-7.0788990563738245,5.93271136459758,-29.37019489859383,-57.011756267224,-8.940589793328366
0.5,0.3,0.5,1.4279966607226333,19.682186835192834,1.1304382093630454,-6.907907905632077,5.770710422741837,-29.300143979941883,-57.440737595264146,-8.67110874822953
0.5,0.3,0.5,1.9991953250116863,19.794203108271045,1.1129838675542296,-6.84419490619963,5.806627925421627,-29.359981111680398,-57.852853041007634,-8.700198069538619
0.5,0.3,0.5,2.57039398930074,19.635830962060574,1.4550420975362097,-6.731926675306509,6.72538986475109,-29.329832727798692,-58.11713865433947,-9.162673540086336
0.5,0.3,0.5,3.141592653589793,19.529540765345338,1.6653046693163849,-6.565510127727412,7.344920874645442,-28.9839289253255,-58.409339887222366,-9.62108204025156
0.6,-0.3,0.1,-3.141592653589793,17.693825698514864,2.3436193219267407,-7.484990609675736,7.427671665878998,-28.74640437298902,-59.839103020909505,-9.023963322374295
0.6,-0.3,0.1,-2.5703939893007397,17.589867999099166,2.14342492741337,-7.639514670795564,7.204297554392662,-28.71471699883823,-60.620663198623504,-8.887224370622524
0.6,-0.3,0.1,-1.9991953250116865,17.68277024831968,2.1196334281652613,-7.722975556401057,7.279062988404973,-28.738511593985685,-60.84619356359552,-8.857409013954074
0.6,-0.3,0.1,-1.4279966607226333,18.325447242704378,1.806645778492131,-7.763977825053761,5.89289436033371,-28.69046771759155,-62.264828462447184,-9.14360164197594
0.6,-0.3,0.1,-0.8567979964335799,18.46907900008426,1.8410456650180802,-8.201668778855106,5.848532721509256,-28.807842072104165,-62.688721476403714,-9.616566430812236
0.6,-0.3,0.1,-0.2855993321445265,18.567138686102297,1.952811051958377,-9.133823340091704,5.952133182710859,-29.409190628293928,-62.70232311755707,-11.08707415633659
0.6,-0.3,0.1,0.2855993321445265,18.634215903139353,2.057844084160545,-9.469410441766007,5.88855579680881,-29.621556609250757,-62.324354963747155,-11.589805355918875
0.6,-0.3,0.1,0.8567979964335799,18.681584890825167,2.0727053067145698,-9.557300216385125,5.933882728244739,-29.624630518496975,-61.84758214148803,-11.609543413734881
0.6,-0.3,0.1,1.4279966607226333,18.77034233765983,1.4812205008226051,-9.639952744326397,7.01910095294083,-29.64665976491904,-61.16858985528539,-11.16530950779602
0.6,-0.3,0.1,1.9991953250116863,18.80580441350743,1.3323991150429395,-9.844670506669399,7.3489124730383875,-30.05465391199194,-60.59563825707908,-10.794862369653526
0.6,-0.3,0.1,2.57039398930074,18.962627288566484,1.33758018779572,-9.849864578789,7.279865256327433,-30.246120838410043,-60.4487809744581,-10.746864576443397
0.6,-0.3,0.1,3.141592653589793,18.759280450345802,1.436889560829837,-10.1465562742937,7.437085048094459,-31.589656622724988,-60.80939735365216,-9.423680592691598
0.6,-0.3,0.30000000000000004,-3.141592653589793,18.914148034212545,1.0523980528970258,-10.349033367503159,7.580592890230141,-31.863931838548353,-60.654004880117256,-9.121381040586694
0.6,-0.3,0.30000000000000004,-2.5703939893007397,19.015986912537183,1.0870006537317385,-10.284623856144503,7.5048359802756694,-31.978507743403675,-60.85944325124796,-9.095571625126167
0.6,-0.3,0.30000000000000004,-1.9991953250116865,18.298894500817052,1.380641098671342,-10.281749929700425,6.857465432532972,-32.246694377698915,-61.803552893012416,-8.87838117995505
0.6,-0.3,0.30000000000000004,-1.4279966607226333,18.402752786417462,1.4104025648443639,-10.265327930713047,6.7280267851025,-32.30179284378812,-62.03298173218284,-8.861151929566603
0.6,-0.3,0.30000000000000004,-0.8567979964335799,18.048475137783342,1.8061267384921231,-10.154832901573098,5.87458298463606,-32.077267591359806,-62.48489267881588,-8.439642918343317
0.6,-0.3,0.30000000000000004,-0.2855993321445265,18.096887257496107,1.646483784005762,-10.794937315245866,5.855907399673218,-31.78774353525171,-62.87556421941013,-8.81171990464194
0.6,-0.3,0.30000000000000004,0.2855993321445265,18.21843734007299,1.686022218503524,-10.640150884414851,5.794449942336029,-31.902662213685495,-63.30389285764115,-8.787077159973158
